;FLAVOR:Marlin
;TIME:30637
;Filament used: 21.897m
;Layer height: 0.2
;MINX:51.5
;MINY:59
;MINZ:0.2
;MAXX:183.5
;MAXY:176
;MAXZ:35
;Generated with Cura_SteamEngine 4.6.1
M140 S60
M105
M190 S60
M104 S200
M105
M109 S200
M82 ;absolute extrusion mode
; Ender 3 Custom Start G-code
G92 E0 ; Reset Extruder
G28 ; Home all axes
G1 Z2.0 F3000 ; Move Z Axis up little to prevent scratching of Heat Bed
G1 X0.1 Y20 Z0.3 F5000.0 ; Move to start position
G1 X0.1 Y200.0 Z0.3 F1500.0 E15 ; Draw the first line
G1 X0.4 Y200.0 Z0.3 F5000.0 ; Move to side a little
G1 X0.4 Y20 Z0.3 F1500.0 E30 ; Draw the second line
G92 E0 ; Reset Extruder
G1 Z2.0 F3000 ; Move Z Axis up little to prevent scratching of Heat Bed
G1 X5 Y20 Z0.3 F5000.0 ; Move over to prevent blob squish
G92 E0
G92 E0
G1 F1500 E-6.5
;LAYER_COUNT:175
;LAYER:0
M107
G0 F6000 X169.791 Y59.818 Z0.2
;TYPE:SKIRT
G1 F1500 E0
G1 F1200 X170.254 Y59.839 E0.01542
G1 X171.009 Y59.902 E0.04061
G1 X171.217 Y59.927 E0.04758
G1 X172.155 Y60.084 E0.07921
G1 X172.428 Y60.143 E0.0885
G1 X173.507 Y60.439 E0.12572
G1 X173.869 Y60.56 E0.13841
G1 X175.114 Y61.07 E0.18316
G1 X175.47 Y61.244 E0.19634
G1 X176.263 Y61.676 E0.22637
G1 X176.673 Y61.937 E0.24254
G1 X177.004 Y62.159 E0.2558
G1 X178.046 Y62.96 E0.29951
G1 X178.33 Y63.209 E0.31207
G1 X179.254 Y64.13 E0.35546
G1 X179.509 Y64.419 E0.36828
G1 X180.298 Y65.436 E0.41109
G1 X180.512 Y65.751 E0.42376
G1 X181.177 Y66.88 E0.46734
G1 X181.356 Y67.234 E0.48053
G1 X181.728 Y68.058 E0.5106
G1 X181.898 Y68.514 E0.52679
G1 X182.031 Y68.9 E0.54037
G1 X182.287 Y69.766 E0.5704
G1 X182.388 Y70.218 E0.58581
G1 X182.465 Y70.602 E0.59884
G1 X182.603 Y71.494 E0.62886
G1 X182.66 Y72.331 E0.65676
G1 X182.699 Y73.898 E0.70889
G1 X182.7 Y161.293 E3.61566
G1 X182.693 Y161.88 E3.63519
G1 X182.683 Y162.224 E3.64664
G1 X182.652 Y162.882 E3.66854
G1 X182.569 Y163.781 E3.69857
G1 X182.464 Y164.408 E3.71972
G1 X182.39 Y164.777 E3.73223
G1 X182.047 Y166.052 E3.77615
G1 X181.924 Y166.414 E3.78887
G1 X181.439 Y167.593 E3.83127
G1 X181.263 Y167.955 E3.84465
G1 X180.833 Y168.749 E3.87469
G1 X180.553 Y169.189 E3.89203
G1 X180.333 Y169.516 E3.90514
G1 X179.541 Y170.545 E3.94833
G1 X179.293 Y170.828 E3.96085
G1 X178.372 Y171.752 E4.00424
G1 X178.082 Y172.008 E4.0171
G1 X177.074 Y172.791 E4.05956
G1 X176.751 Y173.011 E4.07255
G1 X175.983 Y173.486 E4.10259
G1 X175.571 Y173.704 E4.11809
G1 X175.225 Y173.877 E4.13096
G1 X173.977 Y174.4 E4.17596
G1 X173.587 Y174.534 E4.18968
G1 X172.721 Y174.79 E4.21972
G1 X172.259 Y174.893 E4.23546
G1 X171.871 Y174.97 E4.24862
G1 X170.551 Y175.143 E4.29289
G1 X170.184 Y175.167 E4.30513
G1 X169.736 Y175.187 E4.32004
G1 X169.004 Y175.2 E4.34439
G1 X66.249 Y175.2 E7.76204
G1 X65.48 Y175.19 E7.78762
G1 X64.817 Y175.165 E7.80968
G1 X64.147 Y175.114 E7.83203
G1 X63.883 Y175.085 E7.84087
G1 X62.819 Y174.911 E7.87673
G1 X62.549 Y174.852 E7.88592
G1 X61.493 Y174.561 E7.92235
G1 X61.131 Y174.44 E7.93504
G1 X59.885 Y173.929 E7.97984
G1 X59.523 Y173.752 E7.99324
G1 X58.73 Y173.32 E8.02327
G1 X58.303 Y173.048 E8.04011
G1 X57.978 Y172.829 E8.05315
G1 X56.956 Y172.041 E8.09607
G1 X56.665 Y171.786 E8.10894
G1 X55.714 Y170.835 E8.15367
G1 X55.46 Y170.545 E8.16649
G1 X54.67 Y169.519 E8.20956
G1 X54.45 Y169.192 E8.22267
G1 X53.779 Y168.038 E8.26707
G1 X53.608 Y167.694 E8.27985
G1 X53.088 Y166.448 E8.32475
G1 X52.958 Y166.067 E8.33814
G1 X52.705 Y165.2 E8.36818
G1 X52.607 Y164.759 E8.38321
G1 X52.53 Y164.371 E8.39636
G1 X52.361 Y163.112 E8.43861
G1 X52.345 Y162.888 E8.44608
G1 X52.321 Y162.361 E8.46363
G1 X52.3 Y161.191 E8.50255
G1 X52.3 Y73.739 E11.41122
G1 X52.309 Y73.018 E11.4352
G1 X52.319 Y72.693 E11.44601
G1 X52.34 Y72.233 E11.46133
G1 X52.407 Y71.439 E11.48783
G1 X52.432 Y71.238 E11.49457
G1 X52.589 Y70.319 E11.52558
G1 X52.648 Y70.049 E11.53477
G1 X52.936 Y69.001 E11.57092
G1 X53.056 Y68.641 E11.58354
G1 X53.38 Y67.798 E11.61358
G1 X53.57 Y67.386 E11.62867
G1 X53.748 Y67.022 E11.64214
G1 X54.18 Y66.229 E11.67218
G1 X54.452 Y65.803 E11.68899
G1 X54.671 Y65.478 E11.70202
G1 X55.459 Y64.456 E11.74495
G1 X55.714 Y64.165 E11.75782
G1 X56.662 Y63.216 E11.80243
G1 X56.945 Y62.968 E11.81495
G1 X57.938 Y62.2 E11.8567
G1 X58.262 Y61.98 E11.86972
G1 X59.42 Y61.301 E11.91437
G1 X59.767 Y61.127 E11.92728
G1 X60.591 Y60.758 E11.95731
G1 X61.032 Y60.596 E11.97294
G1 X61.42 Y60.463 E11.98658
G1 X62.286 Y60.208 E12.01661
G1 X62.741 Y60.107 E12.03211
G1 X63.129 Y60.03 E12.04526
G1 X64.022 Y59.894 E12.07531
G1 X64.83 Y59.839 E12.10224
G1 X66.368 Y59.8 E12.15341
G1 X168.765 Y59.8 E15.55915
G1 X168.91 Y59.801 E15.56398
G1 X169.791 Y59.818 E15.59328
G0 F6000 X169.809 Y59.419
G1 F1200 X170.272 Y59.44 E15.6087
G1 X171.057 Y59.505 E15.6349
G1 X171.265 Y59.53 E15.64186
G1 X172.239 Y59.693 E15.67471
G1 X172.512 Y59.752 E15.684
G1 X173.633 Y60.06 E15.72267
G1 X173.995 Y60.181 E15.73536
G1 X174.855 Y60.51 E15.76599
G1 X175.29 Y60.711 E15.78192
G1 X175.646 Y60.885 E15.7951
G1 X176.454 Y61.324 E15.82569
G1 X176.895 Y61.605 E15.84308
G1 X177.226 Y61.827 E15.85634
G1 X178.31 Y62.66 E15.90181
G1 X178.594 Y62.909 E15.91437
G1 X179.554 Y63.866 E15.95945
G1 X179.809 Y64.155 E15.97227
G1 X180.629 Y65.211 E16.01674
G1 X180.843 Y65.526 E16.02941
G1 X181.534 Y66.7 E16.07472
G1 X181.713 Y67.054 E16.08791
G1 X182.093 Y67.893 E16.11854
G1 X182.276 Y68.384 E16.13597
G1 X182.409 Y68.77 E16.14955
G1 X182.671 Y69.653 E16.18019
G1 X182.78 Y70.139 E16.19675
G1 X182.857 Y70.523 E16.20978
G1 X182.999 Y71.433 E16.24041
G1 X183.06 Y72.32 E16.26998
G1 X183.099 Y73.898 E16.32248
G1 X183.1 Y161.293 E19.22925
G1 X183.093 Y161.885 E19.24894
G1 X183.082 Y162.243 E19.26086
G1 X183.051 Y162.901 E19.28277
G1 X182.968 Y163.818 E19.31339
G1 X182.856 Y164.486 E19.33592
G1 X182.782 Y164.855 E19.34844
G1 X182.425 Y166.181 E19.39411
G1 X182.302 Y166.543 E19.40682
G1 X181.799 Y167.768 E19.45087
G1 X181.623 Y168.13 E19.46426
G1 X181.185 Y168.94 E19.49488
G1 X180.885 Y169.412 E19.51349
G1 X180.665 Y169.739 E19.52659
G1 X179.842 Y170.808 E19.57147
G1 X179.594 Y171.091 E19.58398
G1 X178.637 Y172.052 E19.62909
G1 X178.347 Y172.308 E19.64196
G1 X177.299 Y173.122 E19.68609
G1 X176.976 Y173.342 E19.69909
G1 X176.193 Y173.827 E19.72972
G1 X175.749 Y174.062 E19.74643
G1 X175.403 Y174.235 E19.7593
G1 X174.563 Y174.611 E19.78991
G1 X174.107 Y174.779 E19.80607
G1 X173.717 Y174.913 E19.81979
G1 X172.835 Y175.174 E19.85038
G1 X172.336 Y175.285 E19.86738
G1 X171.948 Y175.362 E19.88054
G1 X171.038 Y175.502 E19.91116
G1 X170.577 Y175.542 E19.92655
G1 X170.21 Y175.566 E19.93879
G1 X169.745 Y175.587 E19.95427
G1 X169.004 Y175.6 E19.97892
G1 X66.249 Y175.6 E23.39656
G1 X65.474 Y175.59 E23.42234
G1 X65.166 Y175.581 E23.43259
G1 X64.799 Y175.565 E23.44481
G1 X64.104 Y175.512 E23.46799
G1 X63.84 Y175.483 E23.47682
G1 X62.734 Y175.302 E23.5141
G1 X62.464 Y175.243 E23.52329
G1 X61.367 Y174.94 E23.56114
G1 X61.005 Y174.819 E23.57384
G1 X60.145 Y174.49 E23.60446
G1 X59.709 Y174.289 E23.62043
G1 X59.347 Y174.112 E23.63383
G1 X58.538 Y173.672 E23.66446
G1 X58.08 Y173.379 E23.68255
G1 X57.755 Y173.16 E23.69558
G1 X56.692 Y172.342 E23.74019
G1 X56.401 Y172.087 E23.75306
G1 X55.736 Y171.451 E23.78367
G1 X55.413 Y171.099 E23.79956
G1 X55.159 Y170.809 E23.81238
G1 X54.338 Y169.742 E23.85716
G1 X54.118 Y169.415 E23.87027
G1 X53.638 Y168.63 E23.90087
G1 X53.421 Y168.216 E23.91642
G1 X53.25 Y167.872 E23.92919
G1 X52.876 Y167.031 E23.95981
G1 X52.71 Y166.577 E23.97588
G1 X52.58 Y166.196 E23.98927
G1 X52.321 Y165.313 E24.01988
G1 X52.215 Y164.836 E24.03613
G1 X52.138 Y164.448 E24.04929
G1 X51.962 Y163.14 E24.09318
G1 X51.946 Y162.916 E24.10065
G1 X51.921 Y162.369 E24.11887
G1 X51.9 Y161.191 E24.15805
G1 X51.9 Y73.739 E27.06672
G1 X51.909 Y73.012 E27.0909
G1 X51.919 Y72.675 E27.10211
G1 X51.94 Y72.215 E27.11743
G1 X52.01 Y71.39 E27.14497
G1 X52.035 Y71.189 E27.1517
G1 X52.198 Y70.234 E27.18393
G1 X52.257 Y69.964 E27.19312
G1 X52.557 Y68.875 E27.23069
G1 X52.677 Y68.515 E27.24331
G1 X53.006 Y67.655 E27.27394
G1 X53.211 Y67.21 E27.29023
G1 X53.389 Y66.846 E27.30371
G1 X53.829 Y66.038 E27.33431
G1 X54.121 Y65.58 E27.35237
G1 X54.34 Y65.255 E27.36541
G1 X55.158 Y64.192 E27.41002
G1 X55.413 Y63.901 E27.42289
G1 X56.049 Y63.236 E27.45349
G1 X56.399 Y62.915 E27.46929
G1 X56.682 Y62.667 E27.48181
G1 X57.713 Y61.87 E27.52515
G1 X58.037 Y61.65 E27.53817
G1 X58.821 Y61.166 E27.56882
G1 X59.241 Y60.944 E27.58462
G1 X59.588 Y60.77 E27.59753
G1 X60.428 Y60.393 E27.62815
G1 X60.902 Y60.218 E27.64496
G1 X61.29 Y60.085 E27.6586
G1 X62.173 Y59.824 E27.68923
G1 X62.664 Y59.715 E27.70595
G1 X63.052 Y59.638 E27.71911
G1 X63.962 Y59.498 E27.74973
G1 X64.819 Y59.439 E27.77831
G1 X66.368 Y59.4 E27.82984
G1 X168.765 Y59.4 E31.23558
G1 X168.915 Y59.401 E31.24057
G1 X169.809 Y59.419 E31.27031
G0 F6000 X169.827 Y59.019
G1 F1200 X170.29 Y59.04 E31.28572
G1 X171.105 Y59.108 E31.31293
G1 X171.313 Y59.133 E31.31989
G1 X172.324 Y59.302 E31.35399
G1 X172.597 Y59.361 E31.36328
G1 X173.76 Y59.68 E31.40339
G1 X174.122 Y59.801 E31.41608
G1 X174.998 Y60.136 E31.44727
G1 X175.465 Y60.351 E31.46437
G1 X175.821 Y60.525 E31.47755
G1 X176.646 Y60.973 E31.50878
G1 X177.118 Y61.272 E31.52736
G1 X177.449 Y61.494 E31.54062
G1 X178.205 Y62.05 E31.57183
G1 X178.574 Y62.359 E31.58784
G1 X178.858 Y62.608 E31.6004
G1 X179.536 Y63.256 E31.63159
G1 X179.854 Y63.601 E31.6472
G1 X180.109 Y63.89 E31.66002
G1 X180.96 Y64.987 E31.7062
G1 X181.174 Y65.302 E31.71886
G1 X181.667 Y66.099 E31.75003
G1 X181.891 Y66.519 E31.76586
G1 X182.07 Y66.873 E31.77906
G1 X182.458 Y67.728 E31.81029
G1 X182.654 Y68.254 E31.82896
G1 X182.787 Y68.64 E31.84254
G1 X183.054 Y69.539 E31.87373
G1 X183.172 Y70.06 E31.89149
G1 X183.249 Y70.444 E31.90452
G1 X183.394 Y71.371 E31.93573
G1 X183.46 Y72.309 E31.967
G1 X183.499 Y73.898 E32.01987
G1 X183.5 Y161.293 E34.92664
G1 X183.493 Y161.89 E34.9465
G1 X183.482 Y162.262 E34.95887
G1 X183.451 Y162.92 E34.98078
G1 X183.367 Y163.854 E35.01197
G1 X183.248 Y164.565 E35.03595
G1 X183.174 Y164.934 E35.04847
G1 X182.951 Y165.845 E35.07966
G1 X182.804 Y166.31 E35.09588
G1 X182.681 Y166.672 E35.1086
G1 X182.159 Y167.943 E35.1543
G1 X181.983 Y168.305 E35.16769
G1 X181.537 Y169.13 E35.19888
G1 X181.217 Y169.635 E35.21876
G1 X180.997 Y169.962 E35.23187
G1 X180.143 Y171.072 E35.27845
G1 X179.895 Y171.355 E35.29097
G1 X179.247 Y172.033 E35.32216
G1 X178.902 Y172.352 E35.33779
G1 X178.612 Y172.608 E35.35066
G1 X177.524 Y173.452 E35.39646
G1 X177.201 Y173.672 E35.40945
G1 X176.404 Y174.167 E35.44066
G1 X175.928 Y174.42 E35.45859
G1 X175.582 Y174.593 E35.47145
G1 X174.726 Y174.976 E35.50264
G1 X174.237 Y175.157 E35.51999
G1 X173.847 Y175.291 E35.5337
G1 X172.948 Y175.558 E35.56489
G1 X172.414 Y175.678 E35.5831
G1 X172.026 Y175.755 E35.59626
G1 X171.099 Y175.898 E35.62745
G1 X170.603 Y175.942 E35.64401
G1 X170.236 Y175.966 E35.65625
G1 X169.753 Y175.986 E35.67233
G1 X169.004 Y176 E35.69724
G1 X66.249 Y176 E39.11489
G1 X66.09 Y175.999 E39.12017
G1 X65.149 Y175.981 E39.15148
G1 X64.782 Y175.965 E39.1637
G1 X64.06 Y175.909 E39.18778
G1 X63.796 Y175.88 E39.19662
G1 X62.649 Y175.692 E39.23527
G1 X62.379 Y175.633 E39.24447
G1 X61.24 Y175.32 E39.28375
G1 X60.878 Y175.199 E39.29645
G1 X60.002 Y174.864 E39.32764
G1 X59.533 Y174.648 E39.34482
G1 X59.171 Y174.471 E39.35822
G1 X58.347 Y174.023 E39.38941
G1 X57.856 Y173.711 E39.40876
G1 X57.531 Y173.492 E39.4218
G1 X56.428 Y172.643 E39.46809
G1 X56.137 Y172.388 E39.48096
G1 X55.459 Y171.74 E39.51216
G1 X55.112 Y171.363 E39.5292
G1 X54.858 Y171.073 E39.54202
G1 X54.006 Y169.965 E39.58851
G1 X53.786 Y169.638 E39.60162
G1 X53.296 Y168.839 E39.63279
G1 X53.063 Y168.394 E39.6495
G1 X52.892 Y168.05 E39.66227
G1 X52.511 Y167.194 E39.69344
G1 X52.331 Y166.706 E39.71074
G1 X52.201 Y166.325 E39.72413
G1 X51.937 Y165.425 E39.75532
G1 X51.822 Y164.914 E39.77274
G1 X51.745 Y164.526 E39.7859
G1 X51.563 Y163.169 E39.83144
G1 X51.547 Y162.945 E39.83891
G1 X51.521 Y162.376 E39.85785
G1 X51.5 Y161.191 E39.89727
G1 X51.5 Y73.739 E42.80594
G1 X51.509 Y73.007 E42.83028
G1 X51.519 Y72.656 E42.84196
G1 X51.54 Y72.196 E42.85728
G1 X51.613 Y71.34 E42.88585
G1 X51.638 Y71.139 E42.89259
G1 X51.808 Y70.149 E42.926
G1 X51.867 Y69.879 E42.93519
G1 X52.177 Y68.748 E42.9742
G1 X52.297 Y68.388 E42.98682
G1 X52.632 Y67.512 E43.01801
G1 X52.851 Y67.035 E43.03547
G1 X53.029 Y66.671 E43.04895
G1 X53.477 Y65.847 E43.08014
G1 X53.789 Y65.356 E43.09949
G1 X54.008 Y65.031 E43.11252
G1 X54.857 Y63.928 E43.15882
G1 X55.112 Y63.637 E43.17169
G1 X55.76 Y62.959 E43.20288
G1 X56.135 Y62.614 E43.21983
G1 X56.418 Y62.366 E43.23234
G1 X57.489 Y61.539 E43.27735
G1 X57.813 Y61.319 E43.29038
G1 X58.61 Y60.825 E43.32156
G1 X59.061 Y60.586 E43.33854
G1 X59.408 Y60.412 E43.35145
G1 X60.264 Y60.028 E43.38265
G1 X60.772 Y59.839 E43.40068
G1 X61.16 Y59.706 E43.41432
G1 X62.059 Y59.44 E43.44551
G1 X62.586 Y59.322 E43.46347
G1 X62.974 Y59.245 E43.47663
G1 X63.901 Y59.102 E43.50782
G1 X64.808 Y59.039 E43.53806
G1 X66.368 Y59 E43.58996
G1 X168.765 Y59 E46.9957
G1 X168.921 Y59.001 E47.00089
G1 X169.827 Y59.019 E47.03103
G1 F1500 E40.53103
;MESH:Box.stl
G0 F6000 X169.447 Y69.335
G0 X169.447 Y70.42
G0 X65.201 Y70.792
G0 X64.384 Y71.071
G0 X63.731 Y71.647
G0 X63.442 Y72.148
G0 X63.292 Y72.7
G0 X63.292 Y162.3
G0 X63.571 Y163.116
G0 X64.147 Y163.769
G0 X64.43 Y163.932
G0 X65.561 Y164.4
;TYPE:WALL-INNER
G1 F1500 E47.03103
G1 F1200 X65.181 Y164.378 E47.04369
G1 X64.879 Y164.318 E47.05393
G1 X64.586 Y164.218 E47.06423
G1 X64.294 Y164.074 E47.07506
G1 X64.043 Y163.906 E47.0851
G1 X63.804 Y163.696 E47.09568
G1 X63.594 Y163.457 E47.10627
G1 X63.426 Y163.206 E47.11631
G1 X63.282 Y162.914 E47.12714
G1 X63.182 Y162.621 E47.13744
G1 X63.122 Y162.319 E47.14768
G1 X63.101 Y161.984 E47.15884
G1 X63.1 Y161.429 E47.1773
G1 X63.1 Y73.044 E50.117
G1 X63.122 Y72.681 E50.12909
G1 X63.182 Y72.379 E50.13934
G1 X63.282 Y72.086 E50.14963
G1 X63.426 Y71.794 E50.16046
G1 X63.594 Y71.543 E50.17051
G1 X63.804 Y71.304 E50.18109
G1 X64.043 Y71.094 E50.19167
G1 X64.294 Y70.926 E50.20172
G1 X64.586 Y70.782 E50.21255
G1 X64.879 Y70.682 E50.22284
G1 X65.181 Y70.622 E50.23308
G1 X65.515 Y70.601 E50.24421
G1 X66.566 Y70.6 E50.27917
G1 X169.452 Y70.6 E53.70117
G1 X169.819 Y70.622 E53.7134
G1 X170.121 Y70.682 E53.72364
G1 X170.414 Y70.782 E53.73394
G1 X170.706 Y70.926 E53.74477
G1 X170.957 Y71.094 E53.75481
G1 X171.196 Y71.304 E53.7654
G1 X171.406 Y71.543 E53.77598
G1 X171.574 Y71.794 E53.78602
G1 X171.718 Y72.086 E53.79685
G1 X171.818 Y72.379 E53.80715
G1 X171.878 Y72.681 E53.81739
G1 X171.899 Y73.015 E53.82852
G1 X171.9 Y161.745 E56.77969
G1 X171.9 Y161.969 E56.78714
G1 X171.878 Y162.319 E56.79881
G1 X171.818 Y162.621 E56.80905
G1 X171.718 Y162.914 E56.81934
G1 X171.574 Y163.206 E56.83017
G1 X171.406 Y163.457 E56.84022
G1 X171.196 Y163.696 E56.8508
G1 X170.957 Y163.906 E56.86138
G1 X170.706 Y164.074 E56.87143
G1 X170.414 Y164.218 E56.88226
G1 X170.121 Y164.318 E56.89255
G1 X169.819 Y164.378 E56.9028
G1 X169.484 Y164.399 E56.91396
G1 X169.374 Y164.4 E56.91762
G1 X65.561 Y164.4 E60.37045
G0 F6000 X65.554 Y164.8
;TYPE:WALL-OUTER
G1 F1200 X65.13 Y164.775 E60.38458
G1 X64.773 Y164.704 E60.39669
G1 X64.431 Y164.588 E60.4087
G1 X64.099 Y164.424 E60.42101
G1 X63.797 Y164.222 E60.4331
G1 X63.521 Y163.979 E60.44533
G1 X63.278 Y163.703 E60.45756
G1 X63.076 Y163.401 E60.46964
G1 X62.912 Y163.069 E60.48196
G1 X62.796 Y162.727 E60.49397
G1 X62.725 Y162.37 E60.50608
G1 X62.701 Y161.994 E60.51861
G1 X62.7 Y161.43 E60.53737
G1 X62.7 Y73.044 E63.4771
G1 X62.725 Y72.63 E63.49089
G1 X62.796 Y72.273 E63.503
G1 X62.912 Y71.931 E63.51501
G1 X63.076 Y71.599 E63.52733
G1 X63.278 Y71.297 E63.53941
G1 X63.521 Y71.021 E63.55164
G1 X63.797 Y70.778 E63.56387
G1 X64.099 Y70.576 E63.57596
G1 X64.431 Y70.412 E63.58827
G1 X64.773 Y70.296 E63.60028
G1 X65.13 Y70.225 E63.61239
G1 X65.506 Y70.201 E63.62492
G1 X66.566 Y70.2 E63.66018
G1 X169.46 Y70.2 E67.08245
G1 X169.87 Y70.225 E67.09611
G1 X170.227 Y70.296 E67.10821
G1 X170.569 Y70.412 E67.12023
G1 X170.901 Y70.576 E67.13254
G1 X171.203 Y70.778 E67.14463
G1 X171.479 Y71.021 E67.15686
G1 X171.722 Y71.297 E67.16909
G1 X171.924 Y71.599 E67.18117
