;FLAVOR:Marlin
;TIME:24393
;Filament used: 18.0584m
;Layer height: 0.2
;MINX:51.5
;MINY:59
;MINZ:0.2
;MAXX:183.5
;MAXY:176
;MAXZ:25
;Generated with Cura_SteamEngine 4.6.1
M140 S60
M105
M190 S60
M104 S200
M105
M109 S200
M82 ;absolute extrusion mode
; Ender 3 Custom Start G-code
G92 E0 ; Reset Extruder
G28 ; Home all axes
G1 Z2.0 F3000 ; Move Z Axis up little to prevent scratching of Heat Bed
G1 X0.1 Y20 Z0.3 F5000.0 ; Move to start position
G1 X0.1 Y200.0 Z0.3 F1500.0 E15 ; Draw the first line
G1 X0.4 Y200.0 Z0.3 F5000.0 ; Move to side a little
G1 X0.4 Y20 Z0.3 F1500.0 E30 ; Draw the second line
G92 E0 ; Reset Extruder
G1 Z2.0 F3000 ; Move Z Axis up little to prevent scratching of Heat Bed
G1 X5 Y20 Z0.3 F5000.0 ; Move over to prevent blob squish
G92 E0
G92 E0
G1 F1500 E-6.5
;LAYER_COUNT:125
;LAYER:0
M107
G0 F6000 X169.734 Y59.818 Z0.2
;TYPE:SKIRT
G1 F1500 E0
G1 F1200 X170.386 Y59.849 E0.02171
G1 X171.286 Y59.931 E0.05177
G1 X171.918 Y60.038 E0.07309
G1 X172.29 Y60.113 E0.08571
G1 X173.54 Y60.449 E0.12876
G1 X173.901 Y60.571 E0.14143
G1 X175.114 Y61.07 E0.18506
G1 X175.47 Y61.244 E0.19824
G1 X176.263 Y61.676 E0.22827
G1 X176.673 Y61.937 E0.24444
G1 X177.004 Y62.159 E0.25769
G1 X178.046 Y62.96 E0.30141
G1 X178.33 Y63.209 E0.31397
G1 X179.254 Y64.13 E0.35736
G1 X179.509 Y64.419 E0.37018
G1 X180.298 Y65.436 E0.41299
G1 X180.512 Y65.751 E0.42566
G1 X181.177 Y66.88 E0.46924
G1 X181.356 Y67.234 E0.48243
G1 X181.728 Y68.058 E0.5125
G1 X181.898 Y68.514 E0.52869
G1 X182.031 Y68.9 E0.54227
G1 X182.287 Y69.766 E0.5723
G1 X182.388 Y70.218 E0.58771
G1 X182.465 Y70.602 E0.60073
G1 X182.603 Y71.494 E0.63076
G1 X182.66 Y72.336 E0.65882
G1 X182.699 Y73.926 E0.71172
G1 X182.7 Y161.293 E3.61756
G1 X182.693 Y161.884 E3.63722
G1 X182.682 Y162.234 E3.64887
G1 X182.651 Y162.886 E3.67058
G1 X182.569 Y163.786 E3.70064
G1 X182.464 Y164.408 E3.72162
G1 X182.39 Y164.777 E3.73413
G1 X182.047 Y166.052 E3.77805
G1 X181.924 Y166.414 E3.79076
G1 X181.439 Y167.593 E3.83317
G1 X181.263 Y167.955 E3.84655
G1 X180.833 Y168.749 E3.87659
G1 X180.553 Y169.189 E3.89393
G1 X180.333 Y169.516 E3.90704
G1 X179.541 Y170.545 E3.95023
G1 X179.293 Y170.828 E3.96274
G1 X178.372 Y171.752 E4.00614
G1 X178.082 Y172.008 E4.019
G1 X177.074 Y172.791 E4.06145
G1 X176.751 Y173.011 E4.07445
G1 X175.983 Y173.486 E4.10449
G1 X175.571 Y173.704 E4.11999
G1 X175.225 Y173.877 E4.13286
G1 X173.977 Y174.4 E4.17786
G1 X173.587 Y174.534 E4.19158
G1 X172.721 Y174.79 E4.22161
G1 X172.259 Y174.893 E4.23736
G1 X171.871 Y174.97 E4.25051
G1 X170.978 Y175.106 E4.28056
G1 X170.491 Y175.147 E4.29681
G1 X170.088 Y175.171 E4.31024
G1 X169.632 Y175.188 E4.32542
G1 X168.734 Y175.2 E4.35529
G1 X66.207 Y175.2 E7.76535
G1 X65.616 Y175.193 E7.78501
G1 X65.266 Y175.182 E7.79666
G1 X64.614 Y175.151 E7.81837
G1 X63.714 Y175.069 E7.84842
G1 X63.082 Y174.962 E7.86974
G1 X62.71 Y174.887 E7.88236
G1 X61.46 Y174.551 E7.92542
G1 X61.099 Y174.429 E7.93809
G1 X59.885 Y173.929 E7.98176
G1 X59.523 Y173.752 E7.99516
G1 X58.73 Y173.32 E8.0252
G1 X58.303 Y173.048 E8.04203
G1 X57.978 Y172.829 E8.05507
G1 X56.956 Y172.041 E8.09799
G1 X56.665 Y171.786 E8.11086
G1 X55.714 Y170.835 E8.15559
G1 X55.46 Y170.545 E8.16841
G1 X54.67 Y169.519 E8.21148
G1 X54.45 Y169.192 E8.22459
G1 X53.779 Y168.038 E8.26899
G1 X53.608 Y167.694 E8.28177
G1 X53.088 Y166.448 E8.32667
G1 X52.958 Y166.067 E8.34006
G1 X52.705 Y165.2 E8.3701
G1 X52.607 Y164.759 E8.38513
G1 X52.53 Y164.371 E8.39829
G1 X52.394 Y163.478 E8.42833
G1 X52.338 Y162.649 E8.45596
G1 X52.301 Y161.074 E8.50836
G1 X52.3 Y74.212 E11.39741
G1 X52.301 Y73.6 E11.41776
G1 X52.31 Y72.975 E11.43855
G1 X52.32 Y72.657 E11.44913
G1 X52.339 Y72.241 E11.46298
G1 X52.403 Y71.471 E11.48868
G1 X52.428 Y71.266 E11.49555
G1 X52.585 Y70.339 E11.52682
G1 X52.644 Y70.067 E11.53608
G1 X52.938 Y68.995 E11.57305
G1 X53.059 Y68.633 E11.58575
G1 X53.57 Y67.386 E11.63057
G1 X53.748 Y67.022 E11.64404
G1 X54.18 Y66.229 E11.67408
G1 X54.452 Y65.803 E11.69089
G1 X54.671 Y65.478 E11.70392
G1 X55.459 Y64.456 E11.74685
G1 X55.714 Y64.165 E11.75972
G1 X56.662 Y63.216 E11.80433
G1 X56.945 Y62.968 E11.81685
G1 X57.938 Y62.2 E11.8586
G1 X58.262 Y61.98 E11.87162
G1 X59.42 Y61.301 E11.91627
G1 X59.767 Y61.127 E11.92918
G1 X60.591 Y60.758 E11.95921
G1 X61.032 Y60.596 E11.97484
G1 X61.42 Y60.463 E11.98848
G1 X62.286 Y60.208 E12.01851
G1 X62.741 Y60.107 E12.03401
G1 X63.129 Y60.03 E12.04717
G1 X64.022 Y59.894 E12.07721
G1 X64.836 Y59.839 E12.10434
G1 X66.395 Y59.8 E12.15621
G1 X168.793 Y59.8 E15.56198
G1 X168.927 Y59.801 E15.56644
G1 X169.734 Y59.818 E15.59329
G0 F6000 X169.753 Y59.418
G1 F1200 X170.405 Y59.449 E15.615
G1 X171.322 Y59.533 E15.64563
G1 X171.997 Y59.646 E15.66839
G1 X172.369 Y59.721 E15.68101
G1 X173.668 Y60.07 E15.72575
G1 X174.029 Y60.192 E15.73842
G1 X175.29 Y60.711 E15.78378
G1 X175.646 Y60.885 E15.79696
G1 X176.454 Y61.324 E15.82754
G1 X176.895 Y61.605 E15.84493
G1 X177.226 Y61.827 E15.85819
G1 X178.31 Y62.66 E15.90366
G1 X178.594 Y62.909 E15.91622
G1 X179.554 Y63.866 E15.96131
G1 X179.809 Y64.155 E15.97412
G1 X180.629 Y65.211 E16.01859
G1 X180.843 Y65.526 E16.03126
G1 X181.534 Y66.7 E16.07657
G1 X181.713 Y67.054 E16.08976
G1 X182.093 Y67.893 E16.1204
G1 X182.276 Y68.384 E16.13782
G1 X182.409 Y68.77 E16.1514
G1 X182.671 Y69.653 E16.18204
G1 X182.78 Y70.139 E16.1986
G1 X182.857 Y70.523 E16.21163
G1 X182.999 Y71.433 E16.24226
G1 X183.06 Y72.326 E16.27203
G1 X183.099 Y73.926 E16.32526
G1 X183.1 Y161.293 E19.2311
G1 X183.093 Y161.889 E19.25093
G1 X183.082 Y162.253 E19.26304
G1 X183.051 Y162.905 E19.28475
G1 X182.967 Y163.822 E19.31538
G1 X182.856 Y164.486 E19.33777
G1 X182.782 Y164.855 E19.35029
G1 X182.425 Y166.181 E19.39596
G1 X182.302 Y166.543 E19.40867
G1 X181.799 Y167.768 E19.45272
G1 X181.623 Y168.13 E19.46611
G1 X181.185 Y168.94 E19.49673
G1 X180.885 Y169.412 E19.51534
G1 X180.665 Y169.739 E19.52844
G1 X179.842 Y170.808 E19.57332
G1 X179.594 Y171.091 E19.58583
G1 X178.637 Y172.052 E19.63094
G1 X178.347 Y172.308 E19.64381
G1 X177.299 Y173.122 E19.68794
G1 X176.976 Y173.342 E19.70094
G1 X176.193 Y173.827 E19.73157
G1 X175.749 Y174.062 E19.74828
G1 X175.403 Y174.235 E19.76115
G1 X174.563 Y174.611 E19.79176
G1 X174.107 Y174.779 E19.80792
G1 X173.717 Y174.913 E19.82164
G1 X172.835 Y175.174 E19.85223
G1 X172.336 Y175.285 E19.86923
G1 X171.948 Y175.362 E19.88239
G1 X171.038 Y175.502 E19.91301
G1 X170.515 Y175.546 E19.93047
G1 X170.112 Y175.57 E19.9439
G1 X169.638 Y175.588 E19.95967
G1 X168.734 Y175.6 E19.98974
G1 X66.207 Y175.6 E23.3998
G1 X65.611 Y175.593 E23.41963
G1 X65.247 Y175.582 E23.43174
G1 X64.595 Y175.551 E23.45345
G1 X63.678 Y175.467 E23.48408
G1 X63.003 Y175.354 E23.50684
G1 X62.631 Y175.279 E23.51946
G1 X61.332 Y174.93 E23.5642
G1 X60.971 Y174.808 E23.57687
G1 X59.709 Y174.289 E23.62226
G1 X59.347 Y174.112 E23.63566
G1 X58.538 Y173.672 E23.66629
G1 X58.08 Y173.379 E23.68438
G1 X57.755 Y173.16 E23.69741
G1 X56.692 Y172.342 E23.74202
G1 X56.401 Y172.087 E23.75489
G1 X55.736 Y171.451 E23.7855
G1 X55.413 Y171.099 E23.80139
G1 X55.159 Y170.809 E23.81421
G1 X54.338 Y169.742 E23.85899
G1 X54.118 Y169.415 E23.87209
G1 X53.638 Y168.63 E23.9027
G1 X53.421 Y168.216 E23.91824
G1 X53.25 Y167.872 E23.93102
G1 X52.876 Y167.031 E23.96163
G1 X52.71 Y166.577 E23.97771
G1 X52.58 Y166.196 E23.9911
G1 X52.321 Y165.313 E24.02171
G1 X52.215 Y164.836 E24.03796
G1 X52.138 Y164.448 E24.05112
G1 X51.998 Y163.538 E24.08174
G1 X51.939 Y162.66 E24.11101
G1 X51.901 Y161.074 E24.16377
G1 X51.9 Y74.212 E27.05281
G1 X51.901 Y73.594 E27.07337
G1 X51.91 Y72.969 E27.09416
G1 X51.92 Y72.638 E27.10517
G1 X51.939 Y72.222 E27.11902
G1 X52.006 Y71.423 E27.14569
G1 X52.031 Y71.218 E27.15256
G1 X52.194 Y70.254 E27.18508
G1 X52.253 Y69.982 E27.19434
G1 X52.559 Y68.869 E27.23273
G1 X52.68 Y68.507 E27.24542
G1 X53.009 Y67.647 E27.27605
G1 X53.211 Y67.21 E27.29206
G1 X53.389 Y66.846 E27.30554
G1 X53.829 Y66.038 E27.33614
G1 X54.121 Y65.58 E27.3542
G1 X54.34 Y65.255 E27.36724
G1 X55.158 Y64.192 E27.41185
G1 X55.413 Y63.901 E27.42472
G1 X56.049 Y63.236 E27.45532
G1 X56.399 Y62.915 E27.47112
G1 X56.682 Y62.667 E27.48364
G1 X57.713 Y61.87 E27.52698
G1 X58.037 Y61.65 E27.54
G1 X58.821 Y61.166 E27.57065
G1 X59.241 Y60.944 E27.58645
G1 X59.588 Y60.77 E27.59936
G1 X60.428 Y60.393 E27.62998
G1 X60.902 Y60.218 E27.64679
G1 X61.29 Y60.085 E27.66043
G1 X62.173 Y59.824 E27.69106
G1 X62.664 Y59.715 E27.70778
G1 X63.052 Y59.638 E27.72094
G1 X63.962 Y59.498 E27.75156
G1 X64.825 Y59.439 E27.78033
G1 X66.395 Y59.4 E27.83257
G1 X168.793 Y59.4 E31.23834
G1 X168.932 Y59.401 E31.24296
G1 X169.753 Y59.418 E31.27028
G0 F6000 X169.772 Y59.018
G1 F1200 X170.424 Y59.049 E31.29199
G1 X171.358 Y59.134 E31.32318
G1 X172.076 Y59.254 E31.34739
G1 X172.448 Y59.329 E31.36001
G1 X173.796 Y59.691 E31.40644
G1 X174.157 Y59.813 E31.41911
G1 X175.032 Y60.151 E31.45031
G1 X175.465 Y60.351 E31.46617
G1 X175.821 Y60.525 E31.47935
G1 X176.646 Y60.973 E31.51058
G1 X177.118 Y61.272 E31.52916
G1 X177.449 Y61.494 E31.54242
G1 X178.205 Y62.05 E31.57363
G1 X178.574 Y62.359 E31.58964
G1 X178.858 Y62.608 E31.6022
G1 X179.536 Y63.256 E31.63339
G1 X179.854 Y63.601 E31.649
G1 X180.109 Y63.89 E31.66182
G1 X180.96 Y64.987 E31.70799
G1 X181.174 Y65.302 E31.72066
G1 X181.667 Y66.099 E31.75183
G1 X181.891 Y66.519 E31.76766
G1 X182.07 Y66.873 E31.78086
G1 X182.458 Y67.728 E31.81208
G1 X182.654 Y68.254 E31.83075
G1 X182.787 Y68.64 E31.84433
G1 X183.054 Y69.539 E31.87552
G1 X183.172 Y70.06 E31.89329
G1 X183.249 Y70.444 E31.90632
G1 X183.394 Y71.371 E31.93753
G1 X183.46 Y72.315 E31.969
G1 X183.499 Y73.926 E32.0226
G1 X183.5 Y161.293 E34.92844
G1 X183.493 Y161.894 E34.94843
G1 X183.482 Y162.272 E34.961
G1 X183.451 Y162.924 E34.98271
G1 X183.366 Y163.858 E35.01391
G1 X183.248 Y164.565 E35.03775
G1 X183.174 Y164.934 E35.05026
G1 X182.951 Y165.845 E35.08146
G1 X182.804 Y166.31 E35.09768
G1 X182.681 Y166.672 E35.1104
G1 X182.159 Y167.943 E35.1561
G1 X181.983 Y168.305 E35.16948
G1 X181.537 Y169.13 E35.20068
G1 X181.217 Y169.635 E35.22056
G1 X180.997 Y169.962 E35.23367
G1 X180.143 Y171.072 E35.28025
G1 X179.895 Y171.355 E35.29277
G1 X179.247 Y172.033 E35.32396
G1 X178.902 Y172.352 E35.33959
G1 X178.612 Y172.608 E35.35245
G1 X177.524 Y173.452 E35.39825
G1 X177.201 Y173.672 E35.41125
G1 X176.404 Y174.167 E35.44246
G1 X175.928 Y174.42 E35.46038
G1 X175.582 Y174.593 E35.47325
G1 X174.726 Y174.976 E35.50444
G1 X174.237 Y175.157 E35.52178
G1 X173.847 Y175.291 E35.5355
G1 X172.948 Y175.558 E35.56669
G1 X172.414 Y175.678 E35.5849
G1 X172.026 Y175.755 E35.59805
G1 X171.099 Y175.898 E35.62925
G1 X170.539 Y175.946 E35.64794
G1 X170.136 Y175.97 E35.66137
G1 X169.644 Y175.988 E35.67775
G1 X168.734 Y176 E35.70801
G1 X66.207 Y176 E39.11808
G1 X65.606 Y175.993 E39.13807
G1 X65.228 Y175.982 E39.15064
G1 X64.576 Y175.951 E39.17235
G1 X63.642 Y175.866 E39.20355
G1 X62.924 Y175.746 E39.22776
G1 X62.552 Y175.671 E39.24038
G1 X61.204 Y175.309 E39.28681
G1 X60.843 Y175.187 E39.29948
G1 X59.968 Y174.849 E39.33068
G1 X59.533 Y174.648 E39.34662
G1 X59.171 Y174.471 E39.36002
G1 X58.347 Y174.023 E39.39121
G1 X57.856 Y173.711 E39.41056
G1 X57.531 Y173.492 E39.4236
G1 X56.428 Y172.643 E39.46989
G1 X56.137 Y172.388 E39.48276
G1 X55.459 Y171.74 E39.51395
G1 X55.112 Y171.363 E39.531
G1 X54.858 Y171.073 E39.54382
G1 X54.006 Y169.965 E39.59031
G1 X53.786 Y169.638 E39.60341
G1 X53.296 Y168.839 E39.63459
G1 X53.063 Y168.394 E39.6513
G1 X52.892 Y168.05 E39.66407
G1 X52.511 Y167.194 E39.69524
G1 X52.331 Y166.706 E39.71254
G1 X52.201 Y166.325 E39.72593
G1 X51.937 Y165.425 E39.75712
G1 X51.822 Y164.914 E39.77454
G1 X51.745 Y164.526 E39.7877
G1 X51.602 Y163.599 E39.8189
G1 X51.539 Y162.67 E39.84986
G1 X51.501 Y161.074 E39.90296
G1 X51.5 Y74.212 E42.792
G1 X51.501 Y73.589 E42.81273
G1 X51.51 Y72.964 E42.83352
G1 X51.52 Y72.62 E42.84496
G1 X51.539 Y72.204 E42.85881
G1 X51.609 Y71.374 E42.88652
G1 X51.634 Y71.169 E42.89339
G1 X51.803 Y70.169 E42.92712
G1 X51.862 Y69.897 E42.93637
G1 X52.179 Y68.742 E42.97621
G1 X52.3 Y68.38 E42.98891
G1 X52.635 Y67.504 E43.0201
G1 X52.851 Y67.035 E43.03727
G1 X53.029 Y66.671 E43.05075
G1 X53.477 Y65.847 E43.08194
G1 X53.789 Y65.356 E43.10129
G1 X54.008 Y65.031 E43.11433
G1 X54.857 Y63.928 E43.16062
G1 X55.112 Y63.637 E43.17349
G1 X55.76 Y62.959 E43.20469
G1 X56.135 Y62.614 E43.22163
G1 X56.418 Y62.366 E43.23415
G1 X57.489 Y61.539 E43.27915
G1 X57.813 Y61.319 E43.29218
G1 X58.61 Y60.825 E43.32337
G1 X59.061 Y60.586 E43.34034
G1 X59.408 Y60.412 E43.35326
G1 X60.264 Y60.028 E43.38446
G1 X60.772 Y59.839 E43.40249
G1 X61.16 Y59.706 E43.41613
G1 X62.059 Y59.44 E43.44731
G1 X62.586 Y59.322 E43.46527
G1 X62.974 Y59.245 E43.47843
G1 X63.901 Y59.102 E43.50963
G1 X64.814 Y59.039 E43.54007
G1 X66.395 Y59 E43.59267
G1 X168.793 Y59 E46.99844
G1 X168.937 Y59.001 E47.00323
G1 X169.772 Y59.018 E47.031
G1 F1500 E40.531
;MESH:Box.stl
G0 F6000 X169.473 Y69.335
G0 X169.473 Y70.42
G0 X170.853 Y71.231
G0 X171.429 Y71.884
G0 X171.708 Y72.7
G0 X171.708 Y162.299
G0 X171.429 Y163.116
G0 X170.853 Y163.769
G0 X170.57 Y163.932
G0 X169.425 Y164.4
;TYPE:WALL-INNER
G1 F1500 E47.031
G1 F1200 X65.524 Y164.4 E50.48677
G1 X65.181 Y164.378 E50.4982
G1 X64.879 Y164.318 E50.50844
G1 X64.586 Y164.218 E50.51874
G1 X64.294 Y164.074 E50.52956
G1 X64.043 Y163.906 E50.53961
G1 X63.804 Y163.696 E50.55019
G1 X63.594 Y163.457 E50.56077
G1 X63.426 Y163.206 E50.57082
G1 X63.282 Y162.914 E50.58165
G1 X63.182 Y162.621 E50.59195
G1 X63.122 Y162.319 E50.60219
G1 X63.101 Y161.984 E50.61335
G1 X63.1 Y74.211 E53.53269
G1 X63.1 Y73.052 E53.57124
G1 X63.122 Y72.681 E53.5836
G1 X63.182 Y72.379 E53.59384
G1 X63.282 Y72.086 E53.60414
G1 X63.426 Y71.794 E53.61497
G1 X63.594 Y71.543 E53.62501
G1 X63.804 Y71.304 E53.6356
G1 X64.043 Y71.094 E53.64618
G1 X64.294 Y70.926 E53.65622
G1 X64.586 Y70.782 E53.66705
G1 X64.879 Y70.682 E53.67735
G1 X65.181 Y70.622 E53.68759
G1 X65.516 Y70.601 E53.69875
G1 X66.566 Y70.6 E53.73368
G1 X169.476 Y70.6 E57.15648
G1 X169.819 Y70.622 E57.16791
G1 X170.121 Y70.682 E57.17815
G1 X170.414 Y70.782 E57.18845
G1 X170.706 Y70.926 E57.19928
G1 X170.957 Y71.094 E57.20932
G1 X171.196 Y71.304 E57.2199
G1 X171.406 Y71.543 E57.23049
G1 X171.574 Y71.794 E57.24053
G1 X171.718 Y72.086 E57.25136
G1 X171.818 Y72.379 E57.26166
G1 X171.878 Y72.681 E57.2719
G1 X171.899 Y73.016 E57.28306
G1 X171.9 Y161.643 E60.23081
G1 X171.9 Y161.976 E60.24188
G1 X171.878 Y162.319 E60.25332
G1 X171.818 Y162.621 E60.26356
G1 X171.718 Y162.914 E60.27385
G1 X171.574 Y163.206 E60.28468
G1 X171.406 Y163.457 E60.29473
G1 X171.196 Y163.696 E60.30531
G1 X170.957 Y163.906 E60.31589
G1 X170.706 Y164.074 E60.32594
G1 X170.414 Y164.218 E60.33677
G1 X170.121 Y164.318 E60.34706
G1 X169.819 Y164.378 E60.3573
G1 X169.425 Y164.4 E60.37043
G0 F6000 X169.43 Y164.8
;TYPE:WALL-OUTER
G1 F1200 X65.513 Y164.8 E63.82672
G1 X65.13 Y164.775 E63.83949
G1 X64.773 Y164.704 E63.85159
G1 X64.431 Y164.588 E63.86361
G1 X64.099 Y164.424 E63.87592
G1 X63.797 Y164.222 E63.88801
G1 X63.521 Y163.979 E63.90024
G1 X63.278 Y163.703 E63.91247
G1 X63.076 Y163.401 E63.92455
G1 X62.912 Y163.069 E63.93687
G1 X62.796 Y162.727 E63.94888
G1 X62.725 Y162.37 E63.96099
G1 X62.701 Y161.993 E63.97355
G1 X62.7 Y74.211 E66.89319
G1 X62.7 Y73.052 E66.93174
G1 X62.725 Y72.63 E66.9458
G1 X62.796 Y72.273 E66.95791
G1 X62.912 Y71.931 E66.96992
G1 X63.076 Y71.599 E66.98223
G1 X63.278 Y71.297 E66.99432
G1 X63.521 Y71.021 E67.00655
G1 X63.797 Y70.778 E67.01878
G1 X64.099 Y70.576 E67.03086
G1 X64.431 Y70.412 E67.04318
G1 X64.773 Y70.296 E67.05519
G1 X65.13 Y70.225 E67.0673
G1 X65.507 Y70.201 E67.07986
G1 X66.566 Y70.2 E67.11509
G1 X169.487 Y70.2 E70.53825
G1 X169.87 Y70.225 E70.55102
G1 X170.227 Y70.296 E70.56312
G1 X170.569 Y70.412 E70.57514
G1 X170.901 Y70.576 E70.58745
G1 X171.203 Y70.778 E70.59954
G1 X171.479 Y71.021 E70.61177
G1 X171.722 Y71.297 E70.624
G1 X171.924 Y71.599 E70.63608
G1 X172.088 Y71.931 E70.6484
G1 X172.204 Y72.273 E70.66041
G1 X172.275 Y72.63 E70.67252
G1 X172.299 Y73.007 E70.68508
G1 X172.3 Y161.643 E73.63313
G1 X172.3 Y161.987 E73.64457
G1 X172.275 Y162.37 E73.65733
G1 X172.204 Y162.727 E73.66944
