;FLAVOR:Marlin
;TIME:6414
;Filament used: 2.94822m
;Layer height: 0.2
;MINX:96.514
;MINY:101.501
;MINZ:0.2
;MAXX:138.473
;MAXY:133.482
;MAXZ:114.4
;Generated with Cura_SteamEngine 4.6.1
M140 S60
M105
M190 S60
M104 S200
M105
M109 S200
M82 ;absolute extrusion mode
; Ender 3 Custom Start G-code
G92 E0 ; Reset Extruder
G28 ; Home all axes
G1 Z2.0 F3000 ; Move Z Axis up little to prevent scratching of Heat Bed
G1 X0.1 Y20 Z0.3 F5000.0 ; Move to start position
G1 X0.1 Y200.0 Z0.3 F1500.0 E15 ; Draw the first line
G1 X0.4 Y200.0 Z0.3 F5000.0 ; Move to side a little
G1 X0.4 Y20 Z0.3 F1500.0 E30 ; Draw the second line
G92 E0 ; Reset Extruder
G1 Z2.0 F3000 ; Move Z Axis up little to prevent scratching of Heat Bed
G1 X5 Y20 Z0.3 F5000.0 ; Move over to prevent blob squish
G92 E0
G92 E0
G1 F1500 E-6.5
;LAYER_COUNT:575
;LAYER:0
M107
G0 F6000 X127.608 Y102.31 Z0.2
;TYPE:SKIRT
G1 F1500 E0
G1 F1200 X128.51 Y102.362 E0.03005
G1 X129.403 Y102.494 E0.06007
G1 X130.282 Y102.704 E0.09013
G1 X131.138 Y102.992 E0.12017
G1 X131.965 Y103.353 E0.15018
G1 X132.757 Y103.787 E0.18022
G1 X133.508 Y104.289 E0.21027
G1 X134.212 Y104.855 E0.24031
G1 X134.862 Y105.482 E0.27035
G1 X135.455 Y106.163 E0.30038
G1 X135.985 Y106.895 E0.33044
G1 X136.448 Y107.67 E0.36047
G1 X136.841 Y108.483 E0.3905
G1 X137.16 Y109.328 E0.42054
G1 X137.404 Y110.197 E0.45056
G1 X137.569 Y111.085 E0.4806
G1 X137.665 Y112.215 E0.51832
G1 X137.671 Y112.423 E0.52524
G1 X137.674 Y112.887 E0.54068
G1 X137.667 Y113.306 E0.55462
G1 X137.647 Y113.796 E0.57093
G1 X137.63 Y114.058 E0.57966
G1 X137.546 Y114.859 E0.60645
G1 X137.412 Y115.785 E0.63757
G1 X137.27 Y116.553 E0.66354
G1 X137.113 Y117.254 E0.68744
G1 X136.944 Y117.909 E0.70993
G1 X136.771 Y118.496 E0.73029
G1 X136.551 Y119.157 E0.75346
G1 X136.283 Y119.88 E0.7791
G1 X136.015 Y120.533 E0.80258
G1 X135.763 Y121.091 E0.82295
G1 X135.455 Y121.715 E0.84609
G1 X135.11 Y122.358 E0.87036
G1 X134.759 Y122.962 E0.8936
G1 X134.421 Y123.5 E0.91473
G1 X134.039 Y124.065 E0.93741
G1 X133.613 Y124.652 E0.96154
G1 X133.176 Y125.212 E0.98516
G1 X132.757 Y125.712 E1.00686
G1 X132.298 Y126.224 E1.02973
G1 X131.822 Y126.72 E1.05259
G1 X131.318 Y127.21 E1.07597
G1 X130.799 Y127.681 E1.09928
G1 X130.266 Y128.132 E1.12251
G1 X129.771 Y128.523 E1.14349
G1 X129.213 Y128.934 E1.16654
G1 X128.591 Y129.36 E1.19161
G1 X128.012 Y129.729 E1.21445
G1 X127.48 Y130.043 E1.23499
G1 X126.845 Y130.388 E1.25903
G1 X126.191 Y130.714 E1.28333
G1 X125.586 Y130.991 E1.30547
G1 X124.997 Y131.238 E1.32671
G1 X124.332 Y131.49 E1.35036
G1 X123.64 Y131.725 E1.37467
G1 X122.984 Y131.924 E1.39747
G1 X122.368 Y132.088 E1.41867
G1 X121.667 Y132.248 E1.44259
G1 X120.969 Y132.382 E1.46623
G1 X120.281 Y132.49 E1.48939
G1 X119.625 Y132.57 E1.51137
G1 X118.937 Y132.63 E1.53434
G1 X118.23 Y132.668 E1.55789
G1 X117.54 Y132.682 E1.58084
G1 X116.897 Y132.673 E1.60223
G1 X116.205 Y132.64 E1.62527
G1 X115.487 Y132.581 E1.64923
G1 X114.794 Y132.5 E1.67244
G1 X114.147 Y132.402 E1.6942
G1 X113.443 Y132.27 E1.71803
G1 X112.743 Y132.113 E1.74189
G1 X112.091 Y131.944 E1.76429
G1 X111.504 Y131.771 E1.78464
G1 X110.843 Y131.551 E1.80782
G1 X110.12 Y131.283 E1.83346
G1 X109.467 Y131.015 E1.85694
G1 X108.909 Y130.763 E1.8773
G1 X108.285 Y130.455 E1.90045
G1 X107.64 Y130.109 E1.92479
G1 X107.029 Y129.753 E1.94831
G1 X106.492 Y129.415 E1.96942
G1 X105.934 Y129.038 E1.99181
G1 X105.347 Y128.612 E2.01594
G1 X104.787 Y128.175 E2.03956
G1 X104.287 Y127.756 E2.06126
G1 X103.775 Y127.297 E2.08413
G1 X103.279 Y126.821 E2.10699
G1 X102.789 Y126.317 E2.13037
G1 X102.318 Y125.798 E2.15369
G1 X101.867 Y125.265 E2.17691
G1 X101.476 Y124.77 E2.19789
G1 X101.063 Y124.209 E2.22106
G1 X100.638 Y123.588 E2.24609
G1 X100.271 Y123.012 E2.2688
G1 X99.957 Y122.48 E2.28935
G1 X99.612 Y121.845 E2.31339
G1 X99.286 Y121.191 E2.33769
G1 X99.01 Y120.588 E2.35975
G1 X98.762 Y119.997 E2.38106
G1 X98.507 Y119.326 E2.40494
G1 X98.273 Y118.636 E2.42917
G1 X98.076 Y117.984 E2.45183
G1 X97.912 Y117.368 E2.47303
G1 X97.752 Y116.667 E2.49694
G1 X97.618 Y115.969 E2.52058
G1 X97.51 Y115.28 E2.54378
G1 X97.431 Y114.632 E2.56549
G1 X97.37 Y113.935 E2.58876
G1 X97.326 Y113.101 E2.61654
G1 X97.314 Y112.776 E2.62736
G1 X97.334 Y111.826 E2.65896
G1 X97.435 Y110.928 E2.68902
G1 X97.615 Y110.043 E2.71905
G1 X97.873 Y109.178 E2.74908
G1 X98.206 Y108.338 E2.77913
G1 X98.612 Y107.531 E2.80918
G1 X99.088 Y106.764 E2.8392
G1 X99.63 Y106.041 E2.86925
G1 X100.233 Y105.37 E2.89926
G1 X100.894 Y104.754 E2.92931
G1 X101.606 Y104.199 E2.95934
G1 X102.365 Y103.709 E2.98939
G1 X103.164 Y103.289 E3.01941
G1 X103.997 Y102.94 E3.04945
G1 X104.858 Y102.667 E3.07949
G1 X105.74 Y102.471 E3.10954
G1 X106.635 Y102.354 E3.13956
G1 X107.183 Y102.321 E3.15782
G1 X107.975 Y102.306 E3.18417
G1 X126.949 Y102.301 E3.81525
G1 X127.608 Y102.31 E3.83717
G0 F6000 X127.614 Y101.91
G1 F1200 X128.533 Y101.963 E3.86778
G1 X129.444 Y102.095 E3.8984
G1 X130.34 Y102.305 E3.92901
G1 X131.215 Y102.593 E3.95965
G1 X132.061 Y102.955 E3.99025
G1 X132.873 Y103.39 E4.02089
G1 X133.644 Y103.893 E4.05151
G1 X134.368 Y104.461 E4.08212
G1 X135.04 Y105.09 E4.11273
G1 X135.655 Y105.775 E4.14335
G1 X136.209 Y106.511 E4.17399
G1 X136.696 Y107.292 E4.2046
G1 X137.114 Y108.113 E4.23524
G1 X137.459 Y108.966 E4.26585
G1 X137.729 Y109.846 E4.29646
G1 X137.921 Y110.747 E4.3271
G1 X138.035 Y111.66 E4.3577
G1 X138.065 Y112.203 E4.37579
G1 X138.071 Y112.411 E4.38271
G1 X138.074 Y112.894 E4.39878
G1 X138.067 Y113.313 E4.41272
G1 X138.046 Y113.822 E4.42966
G1 X138.029 Y114.084 E4.43839
G1 X137.942 Y114.916 E4.46621
G1 X137.808 Y115.842 E4.49733
G1 X137.661 Y116.641 E4.52436
G1 X137.504 Y117.342 E4.54825
G1 X137.328 Y118.022 E4.57161
G1 X137.155 Y118.609 E4.59196
G1 X136.926 Y119.296 E4.61605
G1 X136.658 Y120.019 E4.6417
G1 X136.38 Y120.698 E4.6661
G1 X136.128 Y121.256 E4.68646
G1 X135.807 Y121.905 E4.71054
G1 X135.462 Y122.548 E4.73482
G1 X135.098 Y123.175 E4.75893
G1 X134.76 Y123.713 E4.78006
G1 X134.363 Y124.3 E4.80363
G1 X133.937 Y124.887 E4.82775
G1 X133.482 Y125.469 E4.85232
G1 X133.063 Y125.969 E4.87402
G1 X132.587 Y126.501 E4.89777
G1 X132.111 Y126.997 E4.92063
G1 X131.587 Y127.507 E4.94495
G1 X131.068 Y127.978 E4.96826
G1 X130.514 Y128.446 E4.99238
G1 X130.019 Y128.837 E5.01336
G1 X129.439 Y129.264 E5.03732
G1 X128.817 Y129.69 E5.06239
G1 X128.215 Y130.074 E5.08614
G1 X127.683 Y130.388 E5.10669
G1 X127.024 Y130.746 E5.13163
G1 X126.37 Y131.072 E5.15594
G1 X125.74 Y131.36 E5.17898
G1 X125.151 Y131.607 E5.20022
G1 X124.461 Y131.869 E5.22477
G1 X123.769 Y132.104 E5.24907
G1 X123.087 Y132.31 E5.27277
G1 X122.471 Y132.474 E5.29397
G1 X121.742 Y132.641 E5.31885
G1 X121.044 Y132.775 E5.34249
G1 X120.329 Y132.887 E5.36656
G1 X119.673 Y132.967 E5.38854
G1 X118.959 Y133.03 E5.41238
G1 X118.252 Y133.068 E5.43593
G1 X117.535 Y133.082 E5.45978
G1 X116.892 Y133.073 E5.48117
G1 X116.172 Y133.038 E5.50514
G1 X115.454 Y132.979 E5.5291
G1 X114.735 Y132.895 E5.55318
G1 X114.088 Y132.797 E5.57494
G1 X113.355 Y132.66 E5.59975
G1 X112.655 Y132.503 E5.62361
G1 X111.978 Y132.328 E5.64686
G1 X111.391 Y132.155 E5.66722
G1 X110.704 Y131.926 E5.6913
G1 X109.981 Y131.658 E5.71695
G1 X109.302 Y131.38 E5.74135
G1 X108.744 Y131.128 E5.76172
G1 X108.096 Y130.808 E5.78575
G1 X107.451 Y130.462 E5.8101
G1 X106.816 Y130.092 E5.83454
G1 X106.279 Y129.754 E5.85565
G1 X105.699 Y129.362 E5.87893
G1 X105.112 Y128.936 E5.90305
G1 X104.53 Y128.481 E5.92762
G1 X104.03 Y128.062 E5.94932
G1 X103.498 Y127.586 E5.97307
G1 X103.002 Y127.11 E5.99593
G1 X102.492 Y126.586 E6.02025
G1 X102.021 Y126.067 E6.04356
G1 X101.553 Y125.513 E6.06768
G1 X101.162 Y125.018 E6.08866
G1 X100.732 Y124.435 E6.11276
G1 X100.307 Y123.814 E6.13779
G1 X99.926 Y123.215 E6.1614
G1 X99.612 Y122.683 E6.18194
G1 X99.254 Y122.024 E6.20689
G1 X98.928 Y121.37 E6.23119
G1 X98.641 Y120.743 E6.25413
G1 X98.393 Y120.152 E6.27544
G1 X98.129 Y119.454 E6.30026
G1 X97.895 Y118.764 E6.3245
G1 X97.69 Y118.087 E6.34802
G1 X97.526 Y117.471 E6.36923
G1 X97.359 Y116.742 E6.3941
G1 X97.225 Y116.044 E6.41774
G1 X97.113 Y115.329 E6.44181
G1 X97.034 Y114.681 E6.46352
G1 X96.971 Y113.956 E6.48773
G1 X96.914 Y112.785 E6.52672
G1 X96.934 Y111.816 E6.55896
G1 X97.035 Y110.901 E6.58958
G1 X97.214 Y109.998 E6.62019
G1 X97.472 Y109.114 E6.65082
G1 X97.805 Y108.256 E6.68143
G1 X98.211 Y107.43 E6.71205
G1 X98.687 Y106.642 E6.74267
G1 X99.23 Y105.899 E6.77327
G1 X99.836 Y105.205 E6.80392
G1 X100.499 Y104.567 E6.83452
G1 X101.215 Y103.988 E6.86515
G1 X101.979 Y103.474 E6.89577
G1 X102.785 Y103.028 E6.92641
G1 X103.626 Y102.654 E6.95703
G1 X104.496 Y102.354 E6.98763
G1 X105.389 Y102.131 E7.01825
G1 X106.298 Y101.986 E7.04886
G1 X107.171 Y101.921 E7.07798
G1 X107.975 Y101.906 E7.10472
G1 X126.955 Y101.901 E7.736
G1 X127.614 Y101.91 E7.75792
G0 F6000 X127.619 Y101.51
G1 F1200 X128.556 Y101.563 E7.78914
G1 X129.484 Y101.695 E7.82031
G1 X130.398 Y101.906 E7.85151
G1 X131.29 Y102.194 E7.88269
G1 X132.155 Y102.557 E7.91389
G1 X132.986 Y102.993 E7.9451
G1 X133.777 Y103.497 E7.9763
G1 X134.521 Y104.067 E8.00747
G1 X135.215 Y104.699 E8.03869
G1 X135.852 Y105.387 E8.06987
G1 X136.428 Y106.127 E8.10106
G1 X136.939 Y106.913 E8.13225
G1 X137.382 Y107.74 E8.16345
G1 X137.752 Y108.602 E8.19465
G1 X138.047 Y109.492 E8.22583
G1 X138.266 Y110.404 E8.25703
G1 X138.406 Y111.331 E8.28821
G1 X138.464 Y112.192 E8.31691
G1 X138.47 Y112.4 E8.32384
G1 X138.473 Y112.901 E8.3405
G1 X138.466 Y113.32 E8.35444
G1 X138.445 Y113.848 E8.37201
G1 X138.428 Y114.11 E8.38074
G1 X138.338 Y114.973 E8.4096
G1 X138.204 Y115.899 E8.44072
G1 X138.051 Y116.728 E8.46876
G1 X137.894 Y117.429 E8.49265
G1 X137.711 Y118.135 E8.51691
G1 X137.538 Y118.722 E8.53727
G1 X137.301 Y119.435 E8.56226
G1 X137.033 Y120.158 E8.5879
G1 X136.744 Y120.862 E8.61321
G1 X136.492 Y121.42 E8.63358
G1 X136.16 Y122.094 E8.65857
G1 X135.815 Y122.737 E8.68284
G1 X135.436 Y123.388 E8.70789
G1 X135.098 Y123.926 E8.72902
G1 X134.687 Y124.535 E8.75346
G1 X134.261 Y125.122 E8.77758
G1 X133.789 Y125.726 E8.80308
G1 X133.37 Y126.226 E8.82478
G1 X132.876 Y126.778 E8.84941
G1 X132.4 Y127.274 E8.87228
G1 X131.855 Y127.803 E8.89754
G1 X131.336 Y128.274 E8.92085
G1 X130.762 Y128.76 E8.94587
G1 X130.267 Y129.151 E8.96685
G1 X129.665 Y129.595 E8.99173
G1 X129.043 Y130.021 E9.0168
G1 X128.418 Y130.418 E9.04143
G1 X127.886 Y130.732 E9.06198
G1 X127.202 Y131.104 E9.08787
G1 X126.548 Y131.43 E9.11218
G1 X125.895 Y131.729 E9.13606
G1 X125.306 Y131.976 E9.15731
G1 X124.589 Y132.248 E9.18281
G1 X123.897 Y132.483 E9.20712
G1 X123.19 Y132.697 E9.23169
G1 X122.574 Y132.861 E9.25289
G1 X121.818 Y133.034 E9.27869
G1 X121.12 Y133.168 E9.30232
G1 X120.378 Y133.284 E9.3273
G1 X119.722 Y133.364 E9.34928
G1 X118.98 Y133.429 E9.37406
G1 X118.273 Y133.467 E9.39761
G1 X117.529 Y133.482 E9.42236
G1 X116.886 Y133.473 E9.44374
G1 X116.139 Y133.437 E9.46862
G1 X115.421 Y133.378 E9.49258
G1 X114.675 Y133.291 E9.51756
G1 X114.028 Y133.193 E9.53933
G1 X113.268 Y133.05 E9.56505
G1 X112.568 Y132.893 E9.58891
G1 X111.865 Y132.711 E9.61306
G1 X111.278 Y132.538 E9.63341
G1 X110.565 Y132.301 E9.6584
G1 X109.842 Y132.033 E9.68405
G1 X109.138 Y131.744 E9.70936
G1 X108.58 Y131.492 E9.72973
G1 X107.907 Y131.16 E9.75468
G1 X107.262 Y130.814 E9.77903
G1 X106.602 Y130.43 E9.80443
G1 X106.065 Y130.092 E9.82553
G1 X105.464 Y129.686 E9.84965
G1 X104.877 Y129.26 E9.87378
G1 X104.273 Y128.788 E9.89927
G1 X103.773 Y128.369 E9.92097
G1 X103.221 Y127.875 E9.94561
G1 X102.725 Y127.399 E9.96847
G1 X102.196 Y126.854 E9.99373
G1 X101.725 Y126.335 E10.01704
G1 X101.239 Y125.761 E10.04206
G1 X100.848 Y125.266 E10.06304
G1 X100.402 Y124.661 E10.08804
G1 X99.977 Y124.04 E10.11307
G1 X99.582 Y123.418 E10.13757
G1 X99.268 Y122.886 E10.15812
G1 X98.896 Y122.202 E10.18402
G1 X98.57 Y121.548 E10.20832
G1 X98.272 Y120.897 E10.23214
G1 X98.024 Y120.306 E10.25345
G1 X97.75 Y119.583 E10.27917
G1 X97.516 Y118.893 E10.3034
G1 X97.303 Y118.19 E10.32783
G1 X97.139 Y117.574 E10.34904
G1 X96.966 Y116.818 E10.37483
G1 X96.832 Y116.12 E10.39847
G1 X96.716 Y115.377 E10.42348
G1 X96.637 Y114.729 E10.44519
G1 X96.571 Y113.978 E10.47027
G1 X96.527 Y113.144 E10.49805
G1 X96.514 Y112.793 E10.50973
G1 X96.534 Y111.807 E10.54253
G1 X96.634 Y110.875 E10.57371
G1 X96.813 Y109.954 E10.60491
G1 X97.071 Y109.052 E10.63612
G1 X97.403 Y108.176 E10.66727
G1 X97.81 Y107.33 E10.6985
G1 X98.287 Y106.523 E10.72968
G1 X98.831 Y105.759 E10.76087
G1 X99.438 Y105.044 E10.79207
G1 X100.104 Y104.384 E10.82325
G1 X100.824 Y103.782 E10.85447
G1 X101.592 Y103.244 E10.88566
G1 X102.403 Y102.774 E10.91683
G1 X103.252 Y102.374 E10.94805
G1 X104.131 Y102.048 E10.97923
G1 X105.035 Y101.798 E11.01042
G1 X105.957 Y101.626 E11.04162
G1 X107.158 Y101.522 E11.08171
G1 X107.974 Y101.506 E11.10886
G1 X126.96 Y101.501 E11.74034
G1 X127.619 Y101.51 E11.76226
G1 F1500 E5.26226
;MESH:Motor Rod.stl
G0 F6000 X127.071 Y111.836
G0 X127.072 Y112.913
G0 X125.969 Y116.165
G0 X125.392 Y117.284
G0 X124.664 Y118.319
G0 X123.805 Y119.241
G0 X122.832 Y120.033
G0 X121.745 Y120.695
G0 X120.594 Y121.195
G0 X119.903 Y121.388
G0 X117.5 Y121.9
;TYPE:WALL-INNER
G1 F1500 E11.76226
G1 F1200 X116.855 Y121.877 E11.78372
G1 X116.215 Y121.812 E11.80512
G1 X115.592 Y121.704 E11.82615
G1 X114.96 Y121.55 E11.84779
G1 X114.355 Y121.358 E11.8689
G1 X113.751 Y121.119 E11.8905
G1 X113.179 Y120.848 E11.91155
G1 X112.619 Y120.532 E11.93294
G1 X112.076 Y120.177 E11.95452
G1 X111.558 Y119.784 E11.97614
G1 X111.084 Y119.37 E11.99708
G1 X110.638 Y118.924 E12.01805
G1 X110.204 Y118.426 E12.04002
G1 X109.821 Y117.921 E12.06111
G1 X109.466 Y117.379 E12.08265
G1 X109.155 Y116.826 E12.10376
G1 X108.877 Y116.24 E12.12533
G1 X108.642 Y115.645 E12.14661
G1 X108.45 Y115.04 E12.16772
G1 X108.295 Y114.404 E12.18949
G1 X108.188 Y113.785 E12.21038
G1 X108.142 Y113.325 E12.22576
G1 X108.141 Y113.324 E12.22581
G1 X108.121 Y113.106 E12.23309
G1 X108.34 Y113.106 E12.23769
G1 X108.341 Y113.106 E12.23772
G1 X126.684 Y113.1 E12.84781
G1 X126.879 Y113.1 E12.8543
G1 X126.877 Y113.145 E12.85579
G1 X126.858 Y113.339 E12.86014
G1 X126.812 Y113.785 E12.87506
G1 X126.705 Y114.404 E12.89595
G1 X126.55 Y115.04 E12.91772
G1 X126.358 Y115.645 E12.93883
G1 X126.123 Y116.24 E12.96011
G1 X125.845 Y116.826 E12.98168
G1 X125.534 Y117.379 E13.00278
G1 X125.179 Y117.921 E13.02433
G1 X124.796 Y118.426 E13.04541
G1 X124.362 Y118.924 E13.06739
G1 X123.916 Y119.37 E13.08836
G1 X123.442 Y119.784 E13.1093
G1 X122.924 Y120.177 E13.13092
G1 X122.381 Y120.532 E13.1525
G1 X121.821 Y120.848 E13.17389
G1 X121.249 Y121.119 E13.19494
G1 X120.645 Y121.358 E13.21654
G1 X120.04 Y121.55 E13.23765
G1 X119.408 Y121.704 E13.25929
G1 X118.785 Y121.812 E13.28032
G1 X118.145 Y121.877 E13.30172
G1 X117.5 Y121.9 E13.32318
G0 F6000 X117.5 Y122.3
;TYPE:WALL-OUTER
G1 F1200 X116.83 Y122.277 E13.34548
G1 X116.164 Y122.209 E13.36775
G1 X115.501 Y122.094 E13.39013
G1 X114.862 Y121.938 E13.412
G1 X114.218 Y121.734 E13.43447
G1 X113.599 Y121.489 E13.45661
G1 X112.985 Y121.198 E13.47921
G1 X112.411 Y120.875 E13.50112
G1 X111.843 Y120.503 E13.5237
G1 X111.316 Y120.103 E13.54571
G1 X110.805 Y119.657 E13.56827
G1 X110.343 Y119.195 E13.59
G1 X109.894 Y118.68 E13.61272
G1 X109.495 Y118.154 E13.63468
G1 X109.123 Y117.586 E13.65726
G1 X108.802 Y117.015 E13.67905
G1 X108.509 Y116.398 E13.70177
G1 X108.266 Y115.782 E13.72379
G1 X108.062 Y115.138 E13.74626
G1 X107.906 Y114.499 E13.76814
G1 X107.791 Y113.836 E13.79052
G1 X107.723 Y113.17 E13.81279
G1 X107.708 Y112.706 E13.82823
G1 X127.293 Y112.7 E14.47963
G1 X127.277 Y113.17 E14.49527
G1 X127.209 Y113.836 E14.51754
G1 X127.094 Y114.499 E14.53992
G1 X126.938 Y115.138 E14.56179
G1 X126.734 Y115.782 E14.58426
G1 X126.491 Y116.398 E14.60629
G1 X126.198 Y117.015 E14.629
G1 X125.877 Y117.586 E14.65079
G1 X125.505 Y118.154 E14.67337
G1 X125.106 Y118.68 E14.69533
G1 X124.657 Y119.195 E14.71806
G1 X124.195 Y119.657 E14.73979
G1 X123.684 Y120.103 E14.76235
G1 X123.157 Y120.503 E14.78435
G1 X122.589 Y120.875 E14.80694
G1 X122.015 Y121.198 E14.82884
G1 X121.401 Y121.489 E14.85144
G1 X120.782 Y121.734 E14.87358
G1 X120.138 Y121.938 E14.89605
