;FLAVOR:Marlin
;TIME:529
;Filament used: 0.234226m
;Layer height: 0.2
;MINX:95.5
;MINY:104
;MINZ:0.2
;MAXX:139.5
;MAXY:131
;MAXZ:7
;Generated with Cura_SteamEngine 4.6.1
M140 S60
M105
M190 S60
M104 S200
M105
M109 S200
M82 ;absolute extrusion mode
; Ender 3 Custom Start G-code
G92 E0 ; Reset Extruder
G28 ; Home all axes
G1 Z2.0 F3000 ; Move Z Axis up little to prevent scratching of Heat Bed
G1 X0.1 Y20 Z0.3 F5000.0 ; Move to start position
G1 X0.1 Y200.0 Z0.3 F1500.0 E15 ; Draw the first line
G1 X0.4 Y200.0 Z0.3 F5000.0 ; Move to side a little
G1 X0.4 Y20 Z0.3 F1500.0 E30 ; Draw the second line
G92 E0 ; Reset Extruder
G1 Z2.0 F3000 ; Move Z Axis up little to prevent scratching of Heat Bed
G1 X5 Y20 Z0.3 F5000.0 ; Move over to prevent blob squish
G92 E0
G92 E0
G1 F1500 E-6.5
;LAYER_COUNT:35
;LAYER:0
M107
G0 F6000 X128.637 Y104.811 Z0.2
;TYPE:SKIRT
G1 F1500 E0
G1 F1200 X129.539 Y104.864 E0.03005
G1 X130.432 Y104.996 E0.06008
G1 X131.31 Y105.207 E0.09011
G1 X132.166 Y105.495 E0.12015
G1 X132.993 Y105.857 E0.15018
G1 X133.785 Y106.292 E0.18023
G1 X134.536 Y106.794 E0.21027
G1 X135.239 Y107.361 E0.24031
G1 X135.889 Y107.988 E0.27035
G1 X136.481 Y108.67 E0.30039
G1 X137.011 Y109.401 E0.33042
G1 X137.473 Y110.177 E0.36046
G1 X137.866 Y110.99 E0.39049
G1 X138.184 Y111.835 E0.42052
G1 X138.427 Y112.705 E0.45056
G1 X138.592 Y113.593 E0.4806
G1 X138.687 Y114.723 E0.51832
G1 X138.7 Y115.33 E0.53851
G1 X138.699 Y119.39 E0.67355
G1 X138.69 Y120.117 E0.69773
G1 X138.639 Y121.019 E0.72778
G1 X138.508 Y121.913 E0.75783
G1 X138.299 Y122.791 E0.78785
G1 X138.013 Y123.648 E0.8179
G1 X137.652 Y124.476 E0.84794
G1 X137.22 Y125.268 E0.87795
G1 X136.719 Y126.02 E0.908
G1 X136.153 Y126.724 E0.93805
G1 X135.528 Y127.375 E0.96806
G1 X134.847 Y127.969 E0.99812
G1 X134.116 Y128.5 E1.02817
G1 X133.342 Y128.964 E1.05819
G1 X132.529 Y129.358 E1.08823
G1 X131.685 Y129.678 E1.11826
G1 X130.815 Y129.923 E1.14832
G1 X129.928 Y130.089 E1.17833
G1 X128.777 Y130.187 E1.21675
G1 X128.17 Y130.2 E1.23695
G1 X107.075 Y130.199 E1.93857
G1 X106.377 Y130.19 E1.96179
G1 X105.476 Y130.139 E1.9918
G1 X104.582 Y130.007 E2.02186
G1 X103.704 Y129.798 E2.05188
G1 X102.847 Y129.511 E2.08194
G1 X102.02 Y129.15 E2.11195
G1 X101.227 Y128.717 E2.142
G1 X100.476 Y128.216 E2.17203
G1 X99.772 Y127.65 E2.20207
G1 X99.121 Y127.024 E2.23211
G1 X98.528 Y126.343 E2.26214
G1 X97.998 Y125.612 E2.29217
G1 X97.534 Y124.837 E2.32222
G1 X97.14 Y124.024 E2.35227
G1 X96.82 Y123.18 E2.38229
G1 X96.576 Y122.31 E2.41234
G1 X96.41 Y121.422 E2.44239
G1 X96.313 Y120.267 E2.48094
G1 X96.3 Y119.658 E2.5012
G1 X96.301 Y115.536 E2.6383
G1 X96.31 Y114.871 E2.66042
G1 X96.362 Y113.969 E2.69047
G1 X96.494 Y113.076 E2.72049
G1 X96.704 Y112.198 E2.75052
G1 X96.991 Y111.341 E2.78058
G1 X97.353 Y110.514 E2.8106
G1 X97.786 Y109.722 E2.84062
G1 X98.288 Y108.971 E2.87067
G1 X98.855 Y108.267 E2.90073
G1 X99.481 Y107.617 E2.93075
G1 X100.162 Y107.024 E2.96078
G1 X100.894 Y106.494 E2.99084
G1 X101.669 Y106.031 E3.02087
G1 X102.482 Y105.638 E3.0509
G1 X103.327 Y105.318 E3.08095
G1 X104.196 Y105.075 E3.11097
G1 X105.084 Y104.909 E3.14101
G1 X106.223 Y104.813 E3.17903
G1 X106.83 Y104.8 E3.19922
G1 X127.939 Y104.801 E3.90131
G1 X128.637 Y104.811 E3.92453
G0 F6000 X128.643 Y104.411
G1 F1200 X129.562 Y104.464 E3.95515
G1 X130.473 Y104.597 E3.98577
G1 X131.369 Y104.808 E4.01638
G1 X132.243 Y105.096 E4.04699
G1 X133.09 Y105.459 E4.07764
G1 X133.901 Y105.894 E4.10825
G1 X134.671 Y106.398 E4.13886
G1 X135.395 Y106.967 E4.16949
G1 X136.067 Y107.597 E4.20012
G1 X136.682 Y108.282 E4.23074
G1 X137.235 Y109.018 E4.26136
G1 X137.722 Y109.799 E4.29197
G1 X138.139 Y110.62 E4.3226
G1 X138.484 Y111.474 E4.35323
G1 X138.753 Y112.354 E4.38384
G1 X138.945 Y113.255 E4.41448
G1 X139.058 Y114.168 E4.44508
G1 X139.087 Y114.712 E4.4632
G1 X139.1 Y115.33 E4.48376
G1 X139.099 Y119.395 E4.61896
G1 X139.09 Y120.122 E4.64314
G1 X139.039 Y121.041 E4.67375
G1 X138.908 Y121.953 E4.7044
G1 X138.698 Y122.849 E4.73501
G1 X138.412 Y123.724 E4.76563
G1 X138.051 Y124.571 E4.79625
G1 X137.617 Y125.383 E4.82687
G1 X137.115 Y126.155 E4.8575
G1 X136.547 Y126.88 E4.88813
G1 X135.919 Y127.553 E4.91875
G1 X135.235 Y128.169 E4.94936
G1 X134.5 Y128.723 E4.97998
G1 X133.72 Y129.212 E5.0106
G1 X132.9 Y129.631 E5.04122
G1 X132.047 Y129.977 E5.07184
G1 X131.167 Y130.248 E5.10247
G1 X130.267 Y130.441 E5.13308
G1 X129.353 Y130.556 E5.16372
G1 X128.788 Y130.587 E5.18254
G1 X128.17 Y130.6 E5.2031
G1 X107.07 Y130.599 E5.90489
G1 X106.372 Y130.59 E5.92811
G1 X105.453 Y130.538 E5.95872
G1 X104.542 Y130.407 E5.98933
G1 X103.646 Y130.197 E6.01994
G1 X102.771 Y129.91 E6.05057
G1 X101.924 Y129.548 E6.0812
G1 X101.112 Y129.114 E6.11183
G1 X100.341 Y128.612 E6.14243
G1 X99.616 Y128.044 E6.17306
G1 X98.943 Y127.415 E6.2037
G1 X98.328 Y126.731 E6.23429
G1 X97.774 Y125.996 E6.26491
G1 X97.286 Y125.215 E6.29554
G1 X96.867 Y124.395 E6.32616
G1 X96.521 Y123.542 E6.35678
G1 X96.251 Y122.662 E6.38739
G1 X96.058 Y121.761 E6.41804
G1 X95.944 Y120.848 E6.44864
G1 X95.913 Y120.277 E6.46766
G1 X95.9 Y119.658 E6.48826
G1 X95.901 Y115.531 E6.62552
G1 X95.91 Y114.866 E6.64764
G1 X95.962 Y113.946 E6.67829
G1 X96.094 Y113.035 E6.70891
G1 X96.305 Y112.139 E6.73952
G1 X96.592 Y111.264 E6.77015
G1 X96.955 Y110.418 E6.80077
G1 X97.389 Y109.606 E6.83139
G1 X97.892 Y108.835 E6.86201
G1 X98.461 Y108.111 E6.89264
G1 X99.089 Y107.439 E6.92323
G1 X99.774 Y106.823 E6.95387
G1 X100.51 Y106.27 E6.98449
G1 X101.291 Y105.782 E7.01512
G1 X102.111 Y105.364 E7.04573
G1 X102.965 Y105.019 E7.07637
G1 X103.845 Y104.749 E7.10698
G1 X104.745 Y104.557 E7.13759
G1 X105.659 Y104.443 E7.16822
G1 X106.212 Y104.413 E7.18664
G1 X106.83 Y104.4 E7.2072
G1 X127.945 Y104.401 E7.90949
G1 X128.643 Y104.411 E7.93271
G0 F6000 X128.649 Y104.011
G1 F1200 X129.585 Y104.065 E7.96389
G1 X130.513 Y104.197 E7.99507
G1 X131.427 Y104.409 E8.02627
G1 X132.319 Y104.698 E8.05746
G1 X133.184 Y105.061 E8.08866
G1 X134.014 Y105.497 E8.11984
G1 X134.805 Y106.002 E8.15106
G1 X135.549 Y106.573 E8.18225
G1 X136.242 Y107.205 E8.21345
G1 X136.879 Y107.893 E8.24463
G1 X137.454 Y108.634 E8.27583
G1 X137.965 Y109.42 E8.30701
G1 X138.407 Y110.248 E8.33823
G1 X138.776 Y111.11 E8.36941
G1 X139.071 Y112 E8.4006
G1 X139.289 Y112.912 E8.43179
G1 X139.429 Y113.84 E8.463
G1 X139.487 Y114.701 E8.4917
G1 X139.5 Y115.33 E8.51263
G1 X139.499 Y119.4 E8.648
G1 X139.49 Y120.127 E8.67218
G1 X139.439 Y121.064 E8.70339
G1 X139.307 Y121.992 E8.73457
G1 X139.098 Y122.906 E8.76575
G1 X138.811 Y123.799 E8.79695
G1 X138.449 Y124.665 E8.82817
G1 X138.015 Y125.496 E8.85935
G1 X137.511 Y126.287 E8.89054
G1 X136.942 Y127.032 E8.92172
G1 X136.311 Y127.727 E8.95294
G1 X135.624 Y128.365 E8.98413
G1 X134.885 Y128.942 E9.01531
G1 X134.099 Y129.454 E9.04651
G1 X133.273 Y129.897 E9.07769
G1 X132.411 Y130.269 E9.10891
G1 X131.522 Y130.565 E9.14008
G1 X130.61 Y130.785 E9.17128
G1 X129.683 Y130.926 E9.20247
G1 X128.799 Y130.987 E9.23194
G1 X128.17 Y131 E9.25286
G1 X107.065 Y130.999 E9.95482
G1 X106.367 Y130.99 E9.97803
G1 X105.431 Y130.938 E10.00921
G1 X104.502 Y130.806 E10.04042
G1 X103.588 Y130.596 E10.07162
G1 X102.695 Y130.309 E10.10281
G1 X101.83 Y129.946 E10.13401
G1 X100.999 Y129.512 E10.1652
G1 X100.208 Y129.008 E10.19639
G1 X99.463 Y128.438 E10.22759
G1 X98.769 Y127.807 E10.25879
G1 X98.132 Y127.12 E10.28995
G1 X97.555 Y126.38 E10.32116
G1 X97.043 Y125.594 E10.35236
G1 X96.6 Y124.767 E10.38356
G1 X96.229 Y123.906 E10.41474
G1 X95.933 Y123.016 E10.44594
G1 X95.714 Y122.104 E10.47714
G1 X95.573 Y121.177 E10.50832
G1 X95.513 Y120.288 E10.53796
G1 X95.5 Y119.658 E10.55892
G1 X95.501 Y115.525 E10.69638
G1 X95.51 Y114.86 E10.7185
G1 X95.563 Y113.924 E10.74968
G1 X95.695 Y112.995 E10.78089
G1 X95.906 Y112.081 E10.81209
G1 X96.194 Y111.189 E10.84327
G1 X96.557 Y110.324 E10.87447
G1 X96.992 Y109.493 E10.90566
G1 X97.496 Y108.703 E10.93683
G1 X98.066 Y107.958 E10.96803
G1 X98.698 Y107.264 E10.99925
G1 X99.386 Y106.627 E11.03043
G1 X100.126 Y106.051 E11.06162
G1 X100.912 Y105.539 E11.09282
G1 X101.739 Y105.097 E11.12401
G1 X102.601 Y104.727 E11.15521
G1 X103.491 Y104.431 E11.18641
G1 X104.403 Y104.213 E11.2176
G1 X105.33 Y104.072 E11.24878
G1 X106.201 Y104.013 E11.27782
G1 X106.83 Y104 E11.29874
G1 X127.951 Y104.001 E12.00123
G1 X128.649 Y104.011 E12.02445
G1 F1500 E5.52445
;MESH:Hinge Test 2.stl
G0 F6000 X128.086 Y114.335
G0 X128.086 Y115.414
G0 X107.282 Y115.782
G0 X107.1 Y119.4
;TYPE:WALL-INNER
G1 F1500 E12.02445
G1 F1200 X107.1 Y115.6 E12.15084
G1 X127.9 Y115.6 E12.84265
G1 X127.9 Y119.4 E12.96904
G1 X107.1 Y119.4 E13.66085
G0 F6000 X106.7 Y119.8
;TYPE:WALL-OUTER
G1 F1200 X106.7 Y115.2 E13.81384
G1 X128.3 Y115.2 E14.53226
G1 X128.3 Y119.8 E14.68526
G1 X106.7 Y119.8 E15.40368
G0 F6000 X106.97 Y119.53
G0 X107.21 Y119.01
G0 X107.49 Y119.01
;TYPE:SKIN
G1 F1200 X107.49 Y115.99 E15.50412
G1 X127.51 Y115.99 E16.16999
G1 X127.51 Y119.01 E16.27044
G1 X107.49 Y119.01 E16.93631
G0 F6000 X108.101 Y118.849
G1 F1200 X107.649 Y118.397 E16.95757
G0 F6000 X107.649 Y117.832
G1 F1200 X108.666 Y118.849 E17.0054
G0 F6000 X109.232 Y118.849
G1 F1200 X107.649 Y117.266 E17.07986
G0 F6000 X107.649 Y116.7
G1 F1200 X109.798 Y118.849 E17.18094
G0 F6000 X110.363 Y118.849
G1 F1200 X107.664 Y116.15 E17.3079
G0 F6000 X108.23 Y116.15
G1 F1200 X110.929 Y118.849 E17.43485
G0 F6000 X111.495 Y118.849
G1 F1200 X108.796 Y116.15 E17.5618
G0 F6000 X109.361 Y116.15
G1 F1200 X112.06 Y118.849 E17.68876
G0 F6000 X112.626 Y118.849
G1 F1200 X109.927 Y116.15 E17.81571
G0 F6000 X110.493 Y116.15
G1 F1200 X113.192 Y118.849 E17.94266
G0 F6000 X113.757 Y118.849
G1 F1200 X111.058 Y116.15 E18.06961
G0 F6000 X111.624 Y116.15
G1 F1200 X114.323 Y118.849 E18.19657
G0 F6000 X114.889 Y118.849
G1 F1200 X112.19 Y116.15 E18.32352
G0 F6000 X112.755 Y116.15
G1 F1200 X115.454 Y118.849 E18.45047
G0 F6000 X116.02 Y118.849
G1 F1200 X113.321 Y116.15 E18.57742
G0 F6000 X113.887 Y116.15
G1 F1200 X116.586 Y118.849 E18.70438
G0 F6000 X117.152 Y118.849
G1 F1200 X114.453 Y116.15 E18.83133
G0 F6000 X115.018 Y116.15
G1 F1200 X117.717 Y118.849 E18.95828
G0 F6000 X118.283 Y118.849
G1 F1200 X115.584 Y116.15 E19.08523
G0 F6000 X116.15 Y116.15
G1 F1200 X118.849 Y118.849 E19.21219
G0 F6000 X119.414 Y118.849
G1 F1200 X116.715 Y116.15 E19.33914
G0 F6000 X117.281 Y116.15
G1 F1200 X119.98 Y118.849 E19.46609
G0 F6000 X120.546 Y118.849
G1 F1200 X117.847 Y116.15 E19.59305
G0 F6000 X118.412 Y116.15
G1 F1200 X121.111 Y118.849 E19.72
G0 F6000 X121.677 Y118.849
G1 F1200 X118.978 Y116.15 E19.84695
G0 F6000 X119.544 Y116.15
G1 F1200 X122.243 Y118.849 E19.9739
G0 F6000 X122.808 Y118.849
G1 F1200 X120.109 Y116.15 E20.10086
G0 F6000 X120.675 Y116.15
G1 F1200 X123.374 Y118.849 E20.22781
G0 F6000 X123.94 Y118.849
G1 F1200 X121.241 Y116.15 E20.35476
G0 F6000 X121.806 Y116.15
G1 F1200 X124.505 Y118.849 E20.48171
G0 F6000 X125.071 Y118.849
G1 F1200 X122.372 Y116.15 E20.60867
G0 F6000 X122.938 Y116.15
G1 F1200 X125.637 Y118.849 E20.73562
G0 F6000 X126.203 Y118.849
G1 F1200 X123.503 Y116.15 E20.8626
G0 F6000 X124.069 Y116.15
G1 F1200 X126.768 Y118.849 E20.98955
G0 F6000 X127.334 Y118.849
G1 F1200 X124.635 Y116.15 E21.1165
G0 F6000 X125.201 Y116.15
G1 F1200 X127.349 Y118.298 E21.21754
G0 F6000 X127.349 Y117.732
G1 F1200 X125.766 Y116.15 E21.29197
G0 F6000 X126.332 Y116.15
G1 F1200 X127.349 Y117.166 E21.33979
G0 F6000 X127.349 Y116.601
G1 F1200 X126.898 Y116.15 E21.361
G0 F6000 X126.898 Y115.8
;MESH:NONMESH
G0 F300 X126.898 Y115.8 Z0.4
G0 F6000 X126.898 Y115.71
G0 X107.282 Y115.782
G0 X107.1 Y119.4
;TIME_ELAPSED:41.824602
;LAYER:1
M140 S60
M106 S85
;TYPE:WALL-INNER
;MESH:Hinge Test 2.stl
G1 F1350 X107.1 Y115.6 E21.48739
G1 X127.9 Y115.6 E22.1792
G1 X127.9 Y119.4 E22.30559
G1 X107.1 Y119.4 E22.9974
G0 F7500 X106.7 Y119.8
;TYPE:WALL-OUTER
G1 F1350 X106.7 Y115.2 E23.15039
G1 X128.3 Y115.2 E23.86881
G1 X128.3 Y119.8 E24.02181
G1 X106.7 Y119.8 E24.74023
G0 F7500 X106.97 Y119.53
G0 X107.21 Y119.01
G0 X107.49 Y119.01
;TYPE:SKIN
G1 F1350 X107.49 Y115.99 E24.84067
G1 X127.51 Y115.99 E25.50654
G1 X127.51 Y119.01 E25.60699
G1 X107.49 Y119.01 E26.27286
G0 F7500 X107.21 Y119.01
G0 X107.21 Y116.361
G0 X107.649 Y116.361
G1 F1350 X107.862 Y116.149 E26.28285
G0 F7500 X108.427 Y116.149
G1 F1350 X107.649 Y116.927 E26.31945
G0 F7500 X107.649 Y117.492
G1 F1350 X108.993 Y116.149 E26.38264
G0 F7500 X109.559 Y116.149
G1 F1350 X107.649 Y118.058 E26.47246
G0 F7500 X107.649 Y118.624
G1 F1350 X110.124 Y116.149 E26.58887
G0 F7500 X110.69 Y116.149
G1 F1350 X107.99 Y118.849 E26.71587
G0 F7500 X108.555 Y118.849
G1 F1350 X111.256 Y116.149 E26.8429
G0 F7500 X111.821 Y116.149
G1 F1350 X109.121 Y118.849 E26.9699
G0 F7500 X109.687 Y118.849
G1 F1350 X112.387 Y116.149 E27.0969
G0 F7500 X112.953 Y116.149
G1 F1350 X110.252 Y118.849 E27.22392
G0 F7500 X110.818 Y118.849
G1 F1350 X113.518 Y116.149 E27.35092
G0 F7500 X114.084 Y116.149
G1 F1350 X111.384 Y118.849 E27.47792
G0 F7500 X111.949 Y118.849
G1 F1350 X114.65 Y116.149 E27.60494
G0 F7500 X115.215 Y116.149
G1 F1350 X112.515 Y118.849 E27.73194
G0 F7500 X113.081 Y118.849
G1 F1350 X115.781 Y116.149 E27.85894
G0 F7500 X116.347 Y116.149
G1 F1350 X113.646 Y118.849 E27.98596
G0 F7500 X114.212 Y118.849
G1 F1350 X116.913 Y116.149 E28.11299
G0 F7500 X117.478 Y116.149
G1 F1350 X114.778 Y118.849 E28.23999
G0 F7500 X115.343 Y118.849
G1 F1350 X118.044 Y116.149 E28.36701
G0 F7500 X118.61 Y116.149
G1 F1350 X115.909 Y118.849 E28.49403
G0 F7500 X116.475 Y118.849
G1 F1350 X119.175 Y116.149 E28.62103
G0 F7500 X119.741 Y116.149
G1 F1350 X117.041 Y118.849 E28.74803
G0 F7500 X117.606 Y118.849
G1 F1350 X120.307 Y116.149 E28.87506
G0 F7500 X120.872 Y116.149
G1 F1350 X118.172 Y118.849 E29.00206
G0 F7500 X118.738 Y118.849
G1 F1350 X121.438 Y116.149 E29.12906
G0 F7500 X122.004 Y116.149
G1 F1350 X119.303 Y118.849 E29.25608
G0 F7500 X119.869 Y118.849
G1 F1350 X122.569 Y116.149 E29.38308
G0 F7500 X123.135 Y116.149
G1 F1350 X120.435 Y118.849 E29.51008
G0 F7500 X121 Y118.849
G1 F1350 X123.701 Y116.149 E29.6371
G0 F7500 X124.266 Y116.149
G1 F1350 X121.566 Y118.849 E29.7641
G0 F7500 X122.132 Y118.849
G1 F1350 X124.832 Y116.149 E29.8911
G0 F7500 X125.398 Y116.149
G1 F1350 X122.697 Y118.849 E30.01813
G0 F7500 X123.263 Y118.849
G1 F1350 X125.964 Y116.149 E30.14515
G0 F7500 X126.529 Y116.149
G1 F1350 X123.829 Y118.849 E30.27215
G0 F7500 X124.394 Y118.849
G1 F1350 X127.095 Y116.149 E30.39917
G0 F7500 X127.349 Y116.461
G1 F1350 X124.96 Y118.849 E30.51152
G0 F7500 X125.526 Y118.849
G1 F1350 X127.349 Y117.026 E30.59727
G0 F7500 X127.349 Y117.592
G1 F1350 X126.091 Y118.849 E30.65642
G0 F7500 X126.657 Y118.849
G1 F1350 X127.349 Y118.158 E30.68894
G0 F7500 X127.349 Y118.723
G1 F1350 X127.223 Y118.849 E30.69487
G0 F7500 X127.223 Y119.2
;MESH:NONMESH
G0 F300 X127.223 Y119.2 Z0.6
G0 F7500 X127.223 Y119.29
G0 X109.172 Y119.29
G0 X109.172 Y118.261
;TIME_ELAPSED:58.373757
;LAYER:2
M106 S170
;TYPE:WALL-INNER
;MESH:Hinge Test 2.stl
G1 F1500 X109.443 Y118.139 E30.70475
G1 X109.65 Y117.929 E30.71456
G1 X109.771 Y117.638 E30.72504
G1 X109.754 Y117.29 E30.73663
G1 X109.608 Y117.014 E30.74702
G1 X109.381 Y116.819 E30.75697
G1 X109.091 Y116.726 E30.7671
G1 X108.797 Y116.749 E30.77691
G1 X108.527 Y116.879 E30.78687
G1 X108.327 Y117.108 E30.79699
G1 X108.229 Y117.389 E30.80689
G1 X108.243 Y117.685 E30.81674
G1 X108.368 Y117.956 E30.82667
G1 X108.587 Y118.162 E30.83667
G1 X108.872 Y118.269 E30.84679
G1 X109.172 Y118.261 E30.85677
G0 F9000 X109.081 Y117.863
;TYPE:WALL-OUTER
G1 F1500 X109.211 Y117.805 E30.86151
G1 X109.31 Y117.704 E30.86621
G1 X109.367 Y117.567 E30.87115
G1 X109.359 Y117.398 E30.87678
G1 X109.29 Y117.268 E30.88167
G1 X109.182 Y117.175 E30.88641
G1 X109.044 Y117.131 E30.89123
G1 X108.903 Y117.142 E30.89593
G1 X108.774 Y117.204 E30.90069
G1 X108.679 Y117.313 E30.9055
G1 X108.632 Y117.447 E30.91022
G1 X108.639 Y117.588 E30.91492
G1 X108.699 Y117.718 E30.91968
G1 X108.803 Y117.816 E30.92444
G1 X108.939 Y117.867 E30.92927
G1 X109.081 Y117.863 E30.93399
G0 F9000 X109.178 Y118.292
G1 F1500 E24.43399
G0 F9000 X109.964 Y117.672
G0 X109.964 Y120.665
G0 X105.847 Y120.653
G0 X105.847 Y114.347
G0 X125.036 Y114.335
