;FLAVOR:Marlin
;TIME:516
;Filament used: 0.166932m
;Layer height: 0.2
;MINX:97
;MINY:103.5
;MINZ:0.2
;MAXX:138
;MAXY:131.5
;MAXZ:7
;Generated with Cura_SteamEngine 4.6.1
M140 S60
M105
M190 S60
M104 S200
M105
M109 S200
M82 ;absolute extrusion mode
; Ender 3 Custom Start G-code
G92 E0 ; Reset Extruder
G28 ; Home all axes
G1 Z2.0 F3000 ; Move Z Axis up little to prevent scratching of Heat Bed
G1 X0.1 Y20 Z0.3 F5000.0 ; Move to start position
G1 X0.1 Y200.0 Z0.3 F1500.0 E15 ; Draw the first line
G1 X0.4 Y200.0 Z0.3 F5000.0 ; Move to side a little
G1 X0.4 Y20 Z0.3 F1500.0 E30 ; Draw the second line
G92 E0 ; Reset Extruder
G1 Z2.0 F3000 ; Move Z Axis up little to prevent scratching of Heat Bed
G1 X5 Y20 Z0.3 F5000.0 ; Move over to prevent blob squish
G92 E0
G92 E0
G1 F1500 E-6.5
;LAYER_COUNT:35
;LAYER:0
M107
G0 F6000 X127.137 Y104.311 Z0.2
;TYPE:SKIRT
G1 F1500 E0
G1 F1200 X128.039 Y104.364 E0.03005
G1 X128.932 Y104.496 E0.06008
G1 X129.81 Y104.707 E0.09011
G1 X130.666 Y104.995 E0.12015
G1 X131.493 Y105.357 E0.15018
G1 X132.285 Y105.792 E0.18023
G1 X133.036 Y106.294 E0.21027
G1 X133.739 Y106.861 E0.24031
G1 X134.389 Y107.488 E0.27035
G1 X134.981 Y108.17 E0.30039
G1 X135.511 Y108.901 E0.33042
G1 X135.973 Y109.677 E0.36046
G1 X136.366 Y110.49 E0.39049
G1 X136.684 Y111.335 E0.42052
G1 X136.927 Y112.205 E0.45056
G1 X137.092 Y113.093 E0.4806
G1 X137.187 Y114.223 E0.51832
G1 X137.2 Y114.83 E0.53851
G1 X137.199 Y119.89 E0.70681
G1 X137.19 Y120.617 E0.73099
G1 X137.139 Y121.519 E0.76104
G1 X137.008 Y122.413 E0.79109
G1 X136.799 Y123.291 E0.82111
G1 X136.513 Y124.148 E0.85116
G1 X136.152 Y124.976 E0.8812
G1 X135.72 Y125.768 E0.91121
G1 X135.219 Y126.52 E0.94126
G1 X134.653 Y127.224 E0.97131
G1 X134.028 Y127.875 E1.00132
G1 X133.347 Y128.469 E1.03138
G1 X132.616 Y129 E1.06143
G1 X131.842 Y129.464 E1.09145
G1 X131.029 Y129.858 E1.12149
G1 X130.185 Y130.178 E1.15152
G1 X129.315 Y130.423 E1.18158
G1 X128.428 Y130.589 E1.21159
G1 X127.277 Y130.687 E1.25001
G1 X126.67 Y130.7 E1.27021
G1 X108.575 Y130.699 E1.87205
G1 X107.877 Y130.69 E1.89527
G1 X106.976 Y130.639 E1.92528
G1 X106.082 Y130.507 E1.95534
G1 X105.204 Y130.298 E1.98536
G1 X104.347 Y130.011 E2.01542
G1 X103.52 Y129.65 E2.04543
G1 X102.727 Y129.217 E2.07548
G1 X101.976 Y128.716 E2.10551
G1 X101.272 Y128.15 E2.13555
G1 X100.621 Y127.524 E2.16559
G1 X100.028 Y126.843 E2.19562
G1 X99.498 Y126.112 E2.22565
G1 X99.034 Y125.337 E2.2557
G1 X98.64 Y124.524 E2.28575
G1 X98.32 Y123.68 E2.31577
G1 X98.076 Y122.81 E2.34582
G1 X97.91 Y121.922 E2.37587
G1 X97.813 Y120.767 E2.41442
G1 X97.8 Y120.158 E2.43468
G1 X97.801 Y115.036 E2.60504
G1 X97.81 Y114.371 E2.62716
G1 X97.862 Y113.469 E2.65721
G1 X97.994 Y112.576 E2.68723
G1 X98.204 Y111.698 E2.71726
G1 X98.491 Y110.841 E2.74732
G1 X98.853 Y110.014 E2.77734
G1 X99.286 Y109.222 E2.80736
G1 X99.788 Y108.471 E2.83741
G1 X100.355 Y107.767 E2.86747
G1 X100.981 Y107.117 E2.89749
G1 X101.662 Y106.524 E2.92752
G1 X102.394 Y105.994 E2.95758
G1 X103.169 Y105.531 E2.98761
G1 X103.982 Y105.138 E3.01764
G1 X104.827 Y104.818 E3.04769
G1 X105.696 Y104.575 E3.07771
G1 X106.584 Y104.409 E3.10775
G1 X107.723 Y104.313 E3.14577
G1 X108.33 Y104.3 E3.16596
G1 X126.439 Y104.301 E3.76827
G1 X127.137 Y104.311 E3.79149
G0 F6000 X127.143 Y103.911
G1 F1200 X128.062 Y103.964 E3.82211
G1 X128.973 Y104.097 E3.85273
G1 X129.869 Y104.308 E3.88334
G1 X130.743 Y104.596 E3.91395
G1 X131.59 Y104.959 E3.9446
G1 X132.401 Y105.394 E3.97521
G1 X133.171 Y105.898 E4.00582
G1 X133.895 Y106.467 E4.03644
G1 X134.567 Y107.097 E4.06708
G1 X135.182 Y107.782 E4.0977
G1 X135.735 Y108.518 E4.12832
G1 X136.222 Y109.299 E4.15893
G1 X136.639 Y110.12 E4.18956
G1 X136.984 Y110.974 E4.22019
G1 X137.253 Y111.854 E4.2508
G1 X137.445 Y112.755 E4.28144
G1 X137.558 Y113.668 E4.31204
G1 X137.587 Y114.212 E4.33016
G1 X137.6 Y114.83 E4.35072
G1 X137.599 Y119.895 E4.51918
G1 X137.59 Y120.622 E4.54336
G1 X137.539 Y121.541 E4.57397
G1 X137.408 Y122.453 E4.60462
G1 X137.198 Y123.349 E4.63523
G1 X136.912 Y124.224 E4.66584
G1 X136.551 Y125.071 E4.69647
G1 X136.117 Y125.883 E4.72709
G1 X135.615 Y126.655 E4.75772
G1 X135.047 Y127.38 E4.78835
G1 X134.419 Y128.053 E4.81897
G1 X133.735 Y128.669 E4.84958
G1 X133 Y129.223 E4.8802
G1 X132.22 Y129.712 E4.91082
G1 X131.4 Y130.131 E4.94144
G1 X130.547 Y130.477 E4.97206
G1 X129.667 Y130.748 E5.00268
G1 X128.767 Y130.941 E5.0333
G1 X127.853 Y131.056 E5.06394
G1 X127.288 Y131.087 E5.08276
G1 X126.67 Y131.1 E5.10332
G1 X108.57 Y131.099 E5.70533
G1 X107.872 Y131.09 E5.72854
G1 X106.953 Y131.038 E5.75916
G1 X106.042 Y130.907 E5.78977
G1 X105.146 Y130.697 E5.82038
G1 X104.271 Y130.41 E5.85101
G1 X103.424 Y130.048 E5.88164
G1 X102.612 Y129.614 E5.91227
G1 X101.841 Y129.112 E5.94287
G1 X101.116 Y128.544 E5.9735
G1 X100.443 Y127.915 E6.00414
G1 X99.828 Y127.231 E6.03473
G1 X99.274 Y126.496 E6.06534
G1 X98.786 Y125.715 E6.09597
G1 X98.367 Y124.895 E6.1266
G1 X98.021 Y124.042 E6.15722
G1 X97.751 Y123.162 E6.18783
G1 X97.558 Y122.261 E6.21848
G1 X97.444 Y121.348 E6.24908
G1 X97.413 Y120.777 E6.2681
G1 X97.4 Y120.158 E6.2887
G1 X97.401 Y115.031 E6.45922
G1 X97.41 Y114.366 E6.48134
G1 X97.462 Y113.446 E6.51199
G1 X97.594 Y112.535 E6.5426
G1 X97.805 Y111.639 E6.57322
G1 X98.092 Y110.764 E6.60385
G1 X98.455 Y109.918 E6.63447
G1 X98.889 Y109.106 E6.66509
G1 X99.392 Y108.335 E6.69571
G1 X99.961 Y107.611 E6.72634
G1 X100.589 Y106.939 E6.75693
G1 X101.274 Y106.323 E6.78757
G1 X102.01 Y105.77 E6.81819
G1 X102.791 Y105.282 E6.84882
G1 X103.611 Y104.864 E6.87943
G1 X104.465 Y104.519 E6.91006
G1 X105.345 Y104.249 E6.94068
G1 X106.245 Y104.057 E6.97129
G1 X107.159 Y103.943 E7.00192
G1 X107.712 Y103.913 E7.02034
G1 X108.33 Y103.9 E7.0409
G1 X126.445 Y103.901 E7.64341
G1 X127.143 Y103.911 E7.66663
G0 F6000 X127.149 Y103.511
G1 F1200 X128.085 Y103.565 E7.69781
G1 X129.013 Y103.697 E7.72899
G1 X129.927 Y103.909 E7.76019
G1 X130.819 Y104.198 E7.79138
G1 X131.684 Y104.561 E7.82258
G1 X132.514 Y104.997 E7.85376
G1 X133.305 Y105.502 E7.88498
G1 X134.049 Y106.073 E7.91617
G1 X134.742 Y106.705 E7.94737
G1 X135.379 Y107.393 E7.97855
G1 X135.954 Y108.134 E8.00975
G1 X136.465 Y108.92 E8.04093
G1 X136.907 Y109.748 E8.07214
G1 X137.276 Y110.61 E8.10333
G1 X137.571 Y111.5 E8.13452
G1 X137.789 Y112.412 E8.1657
G1 X137.929 Y113.34 E8.19692
G1 X137.987 Y114.201 E8.22562
G1 X138 Y114.83 E8.24655
G1 X137.999 Y119.9 E8.41518
G1 X137.99 Y120.627 E8.43936
G1 X137.939 Y121.564 E8.47057
G1 X137.807 Y122.492 E8.50174
G1 X137.598 Y123.406 E8.53293
G1 X137.311 Y124.299 E8.56413
G1 X136.949 Y125.165 E8.59534
G1 X136.515 Y125.996 E8.62653
G1 X136.011 Y126.787 E8.65772
G1 X135.442 Y127.532 E8.6889
G1 X134.811 Y128.227 E8.72012
G1 X134.124 Y128.865 E8.75131
G1 X133.385 Y129.442 E8.78249
G1 X132.599 Y129.954 E8.81369
G1 X131.773 Y130.397 E8.84486
G1 X130.911 Y130.769 E8.87609
G1 X130.022 Y131.065 E8.90725
G1 X129.11 Y131.285 E8.93846
G1 X128.183 Y131.426 E8.96964
G1 X127.299 Y131.487 E8.99912
G1 X126.67 Y131.5 E9.02004
G1 X108.565 Y131.499 E9.62222
G1 X107.867 Y131.49 E9.64543
G1 X106.931 Y131.438 E9.67661
G1 X106.002 Y131.306 E9.70782
G1 X105.088 Y131.096 E9.73901
G1 X104.195 Y130.809 E9.77021
G1 X103.33 Y130.446 E9.80141
G1 X102.499 Y130.012 E9.83259
G1 X101.708 Y129.508 E9.86379
G1 X100.963 Y128.938 E9.89499
G1 X100.269 Y128.307 E9.92619
G1 X99.632 Y127.62 E9.95735
G1 X99.055 Y126.88 E9.98856
G1 X98.543 Y126.094 E10.01976
G1 X98.1 Y125.267 E10.05096
G1 X97.729 Y124.406 E10.08214
G1 X97.433 Y123.516 E10.11334
G1 X97.214 Y122.604 E10.14453
G1 X97.073 Y121.677 E10.17572
G1 X97.013 Y120.788 E10.20536
G1 X97 Y120.158 E10.22631
G1 X97.001 Y115.025 E10.39704
G1 X97.01 Y114.36 E10.41916
G1 X97.063 Y113.424 E10.45034
G1 X97.195 Y112.495 E10.48155
G1 X97.406 Y111.581 E10.51275
G1 X97.694 Y110.689 E10.54392
G1 X98.057 Y109.824 E10.57513
G1 X98.492 Y108.993 E10.60632
G1 X98.996 Y108.203 E10.63749
G1 X99.566 Y107.458 E10.66869
G1 X100.198 Y106.764 E10.69991
G1 X100.886 Y106.127 E10.73109
G1 X101.626 Y105.551 E10.76228
G1 X102.412 Y105.039 E10.79348
G1 X103.239 Y104.597 E10.82467
G1 X104.101 Y104.227 E10.85587
G1 X104.991 Y103.931 E10.88707
G1 X105.903 Y103.713 E10.91825
G1 X106.83 Y103.572 E10.94944
G1 X107.701 Y103.513 E10.97848
G1 X108.33 Y103.5 E10.9994
G1 X126.451 Y103.501 E11.60211
G1 X127.149 Y103.511 E11.62533
G1 F1500 E5.12533
;MESH:Hinge Screw Tests.stl
G0 F6000 X126.586 Y113.835
G0 X126.586 Y114.914
G0 X108.782 Y115.282
G0 X108.6 Y119.9
;TYPE:WALL-INNER
G1 F1500 E11.62533
G1 F1200 X108.6 Y115.1 E11.78498
G1 X126.4 Y115.1 E12.37701
G1 X126.4 Y119.9 E12.53665
G1 X108.6 Y119.9 E13.12869
G0 F6000 X108.2 Y120.3
;TYPE:WALL-OUTER
G1 F1200 X108.2 Y114.7 E13.31494
G1 X126.8 Y114.7 E13.93358
G1 X126.8 Y120.3 E14.11984
G1 X108.2 Y120.3 E14.73848
G0 F6000 X108.47 Y120.03
G0 X108.71 Y119.51
G0 X108.99 Y119.51
;TYPE:SKIN
G1 F1200 X108.99 Y115.49 E14.87218
G1 X126.01 Y115.49 E15.43827
G1 X126.01 Y119.51 E15.57197
G1 X108.99 Y119.51 E16.13806
G0 F6000 X109.732 Y119.349
G1 F1200 X109.149 Y118.766 E16.16548
G0 F6000 X109.149 Y118.2
G1 F1200 X110.298 Y119.349 E16.21953
G0 F6000 X110.863 Y119.349
G1 F1200 X109.149 Y117.634 E16.30018
G0 F6000 X109.149 Y117.069
G1 F1200 X111.429 Y119.349 E16.40742
G0 F6000 X111.995 Y119.349
G1 F1200 X109.149 Y116.503 E16.54129
G0 F6000 X109.149 Y115.937
G1 F1200 X112.56 Y119.349 E16.70175
G0 F6000 X113.126 Y119.349
G1 F1200 X109.427 Y115.65 E16.87574
G0 F6000 X109.993 Y115.65
G1 F1200 X113.692 Y119.349 E17.04973
G0 F6000 X114.257 Y119.349
G1 F1200 X110.558 Y115.65 E17.22372
G0 F6000 X111.124 Y115.65
G1 F1200 X114.823 Y119.349 E17.39771
G0 F6000 X115.389 Y119.349
G1 F1200 X111.69 Y115.65 E17.5717
G0 F6000 X112.256 Y115.65
G1 F1200 X115.954 Y119.349 E17.74567
G0 F6000 X116.52 Y119.349
G1 F1200 X112.821 Y115.65 E17.91966
G0 F6000 X113.387 Y115.65
G1 F1200 X117.086 Y119.349 E18.09365
G0 F6000 X117.651 Y119.349
G1 F1200 X113.953 Y115.65 E18.26761
G0 F6000 X114.518 Y115.65
G1 F1200 X118.217 Y119.349 E18.4416
G0 F6000 X118.783 Y119.349
G1 F1200 X115.084 Y115.65 E18.61559
G0 F6000 X115.65 Y115.65
G1 F1200 X119.349 Y119.349 E18.78958
G0 F6000 X119.914 Y119.349
G1 F1200 X116.215 Y115.65 E18.96357
G0 F6000 X116.781 Y115.65
G1 F1200 X120.48 Y119.349 E19.13756
G0 F6000 X121.046 Y119.349
G1 F1200 X117.347 Y115.65 E19.31155
G0 F6000 X117.912 Y115.65
G1 F1200 X121.611 Y119.349 E19.48554
G0 F6000 X122.177 Y119.349
G1 F1200 X118.478 Y115.65 E19.65953
G0 F6000 X119.044 Y115.65
G1 F1200 X122.743 Y119.349 E19.83352
G0 F6000 X123.308 Y119.349
G1 F1200 X119.609 Y115.65 E20.00751
G0 F6000 X120.175 Y115.65
G1 F1200 X123.874 Y119.349 E20.1815
G0 F6000 X124.44 Y119.349
G1 F1200 X120.741 Y115.65 E20.35549
G0 F6000 X121.306 Y115.65
G1 F1200 X125.005 Y119.349 E20.52948
G0 F6000 X125.571 Y119.349
G1 F1200 X121.872 Y115.65 E20.70347
G0 F6000 X122.438 Y115.65
G1 F1200 X125.849 Y119.061 E20.86391
G0 F6000 X125.849 Y118.495
G1 F1200 X123.004 Y115.65 E20.99773
G0 F6000 X123.569 Y115.65
G1 F1200 X125.849 Y117.929 E21.10495
G0 F6000 X125.849 Y117.364
G1 F1200 X124.135 Y115.65 E21.18557
G0 F6000 X124.701 Y115.65
G1 F1200 X125.849 Y116.798 E21.23957
G0 F6000 X125.849 Y116.232
G1 F1200 X125.266 Y115.65 E21.26697
G0 F6000 X125.266 Y115.3
;MESH:NONMESH
G0 F300 X125.266 Y115.3 Z0.4
G0 F6000 X125.266 Y115.21
G0 X108.782 Y115.282
G0 X108.6 Y119.9
;TIME_ELAPSED:41.387579
;LAYER:1
M140 S60
M106 S85
;TYPE:WALL-INNER
;MESH:Hinge Screw Tests.stl
G1 F1350 X108.6 Y115.1 E21.42662
G1 X126.4 Y115.1 E22.01865
G1 X126.4 Y119.9 E22.1783
G1 X108.6 Y119.9 E22.77033
G0 F7500 X108.2 Y120.3
;TYPE:WALL-OUTER
G1 F1350 X108.2 Y114.7 E22.95658
G1 X126.8 Y114.7 E23.57522
G1 X126.8 Y120.3 E23.76148
G1 X108.2 Y120.3 E24.38012
G0 F7500 X108.47 Y120.03
G0 X108.71 Y119.51
G0 X108.99 Y119.51
;TYPE:SKIN
G1 F1350 X108.99 Y115.49 E24.51382
G1 X126.01 Y115.49 E25.07991
G1 X126.01 Y119.51 E25.21362
G1 X108.99 Y119.51 E25.7797
G0 F7500 X108.71 Y119.51
G0 X108.71 Y115.993
G0 X109.149 Y115.993
G1 F1350 X109.493 Y115.649 E25.79589
G0 F7500 X110.059 Y115.649
G1 F1350 X109.149 Y116.558 E25.83867
G0 F7500 X109.149 Y117.124
G1 F1350 X110.624 Y115.649 E25.90805
G0 F7500 X111.19 Y115.649
G1 F1350 X109.149 Y117.69 E26.00405
G0 F7500 X109.149 Y118.255
G1 F1350 X111.756 Y115.649 E26.12665
G0 F7500 X112.321 Y115.649
G1 F1350 X109.149 Y118.821 E26.27585
G0 F7500 X109.187 Y119.349
G1 F1350 X112.887 Y115.649 E26.44989
G0 F7500 X113.453 Y115.649
G1 F1350 X109.752 Y119.349 E26.62395
G0 F7500 X110.318 Y119.349
G1 F1350 X114.018 Y115.649 E26.79798
G0 F7500 X114.584 Y115.649
G1 F1350 X110.884 Y119.349 E26.97202
G0 F7500 X111.449 Y119.349
G1 F1350 X115.15 Y115.649 E27.14608
G0 F7500 X115.715 Y115.649
G1 F1350 X112.015 Y119.349 E27.32012
G0 F7500 X112.581 Y119.349
G1 F1350 X116.281 Y115.649 E27.49415
G0 F7500 X116.847 Y115.649
G1 F1350 X113.146 Y119.349 E27.66821
G0 F7500 X113.712 Y119.349
G1 F1350 X117.412 Y115.649 E27.84225
G0 F7500 X117.978 Y115.649
G1 F1350 X114.278 Y119.349 E28.01629
G0 F7500 X114.844 Y119.349
G1 F1350 X118.544 Y115.649 E28.19032
G0 F7500 X119.11 Y115.649
G1 F1350 X115.409 Y119.349 E28.36438
G0 F7500 X115.975 Y119.349
G1 F1350 X119.675 Y115.649 E28.53842
G0 F7500 X120.241 Y115.649
G1 F1350 X116.541 Y119.349 E28.71246
G0 F7500 X117.106 Y119.349
G1 F1350 X120.807 Y115.649 E28.88652
G0 F7500 X121.372 Y115.649
G1 F1350 X117.672 Y119.349 E29.06055
G0 F7500 X118.238 Y119.349
G1 F1350 X121.938 Y115.649 E29.23459
G0 F7500 X122.504 Y115.649
G1 F1350 X118.803 Y119.349 E29.40865
G0 F7500 X119.369 Y119.349
G1 F1350 X123.069 Y115.649 E29.58269
G0 F7500 X123.635 Y115.649
G1 F1350 X119.935 Y119.349 E29.75672
G0 F7500 X120.5 Y119.349
G1 F1350 X124.201 Y115.649 E29.93078
G0 F7500 X124.766 Y115.649
G1 F1350 X121.066 Y119.349 E30.10482
G0 F7500 X121.632 Y119.349
G1 F1350 X125.332 Y115.649 E30.27886
G0 F7500 X125.849 Y115.698
G1 F1350 X122.197 Y119.349 E30.45061
G0 F7500 X122.763 Y119.349
G1 F1350 X125.849 Y116.263 E30.59577
G0 F7500 X125.849 Y116.829
G1 F1350 X123.329 Y119.349 E30.7143
G0 F7500 X123.895 Y119.349
G1 F1350 X125.849 Y117.395 E30.80621
G0 F7500 X125.849 Y117.96
G1 F1350 X124.46 Y119.349 E30.87155
G0 F7500 X125.026 Y119.349
G1 F1350 X125.849 Y118.526 E30.91026
G0 F7500 X125.849 Y119.092
G1 F1350 X125.592 Y119.349 E30.92235
G0 F7500 X125.592 Y119.7
;MESH:NONMESH
G0 F300 X125.592 Y119.7 Z0.6
G0 F7500 X125.592 Y119.79
G0 X108.6 Y119.9
;TIME_ELAPSED:58.021258
;LAYER:2
M106 S170
;TYPE:WALL-INNER
;MESH:Hinge Screw Tests.stl
G1 F1500 X108.6 Y115.1 E31.082
G1 X126.4 Y115.1 E31.67403
G1 X126.4 Y119.9 E31.83367
G1 X108.6 Y119.9 E32.4257
G0 F9000 X108.2 Y120.3
;TYPE:WALL-OUTER
G1 F1500 X108.2 Y114.7 E32.61196
G1 X126.8 Y114.7 E33.2306
G1 X126.8 Y120.3 E33.41686
G1 X108.2 Y120.3 E34.0355
G0 F9000 X108.47 Y120.03
G0 X108.71 Y119.51
G0 X108.99 Y119.51
;TYPE:SKIN
G1 F1500 X108.99 Y115.49 E34.1692
G1 X126.01 Y115.49 E34.73529
G1 X126.01 Y119.51 E34.86899
G1 X108.99 Y119.51 E35.43508
G0 F9000 X109.732 Y119.349
G1 F1500 X109.149 Y118.766 E35.4625
G0 F9000 X109.149 Y118.2
G1 F1500 X110.298 Y119.349 E35.51655
G0 F9000 X110.863 Y119.349
G1 F1500 X109.149 Y117.634 E35.59719
G0 F9000 X109.149 Y117.069
G1 F1500 X111.429 Y119.349 E35.70444
G0 F9000 X111.995 Y119.349
G1 F1500 X109.149 Y116.503 E35.83831
G0 F9000 X109.149 Y115.937
G1 F1500 X112.56 Y119.349 E35.99877
G0 F9000 X113.126 Y119.349
G1 F1500 X109.427 Y115.65 E36.17276
G0 F9000 X109.993 Y115.65
G1 F1500 X113.692 Y119.349 E36.34675
G0 F9000 X114.257 Y119.349
G1 F1500 X110.558 Y115.65 E36.52074
G0 F9000 X111.124 Y115.65
G1 F1500 X114.823 Y119.349 E36.69473
G0 F9000 X115.389 Y119.349
G1 F1500 X111.69 Y115.65 E36.86872
G0 F9000 X112.256 Y115.65
G1 F1500 X115.954 Y119.349 E37.04269
G0 F9000 X116.52 Y119.349
G1 F1500 X112.821 Y115.65 E37.21668
G0 F9000 X113.387 Y115.65
G1 F1500 X117.086 Y119.349 E37.39067
G0 F9000 X117.651 Y119.349
G1 F1500 X113.953 Y115.65 E37.56463
G0 F9000 X114.518 Y115.65
G1 F1500 X118.217 Y119.349 E37.73862
G0 F9000 X118.783 Y119.349
G1 F1500 X115.084 Y115.65 E37.91261
G0 F9000 X115.65 Y115.65
G1 F1500 X119.349 Y119.349 E38.0866
G0 F9000 X119.914 Y119.349
G1 F1500 X116.215 Y115.65 E38.26059
G0 F9000 X116.781 Y115.65
