;FLAVOR:Marlin
;TIME:526
;Filament used: 0.216179m
;Layer height: 0.2
;MINX:96.5
;MINY:104
;MINZ:0.2
;MAXX:138.5
;MAXY:131
;MAXZ:7
;Generated with Cura_SteamEngine 4.6.1
M140 S60
M105
M190 S60
M104 S200
M105
M109 S200
M82 ;absolute extrusion mode
; Ender 3 Custom Start G-code
G92 E0 ; Reset Extruder
G28 ; Home all axes
G1 Z2.0 F3000 ; Move Z Axis up little to prevent scratching of Heat Bed
G1 X0.1 Y20 Z0.3 F5000.0 ; Move to start position
G1 X0.1 Y200.0 Z0.3 F1500.0 E15 ; Draw the first line
G1 X0.4 Y200.0 Z0.3 F5000.0 ; Move to side a little
G1 X0.4 Y20 Z0.3 F1500.0 E30 ; Draw the second line
G92 E0 ; Reset Extruder
G1 Z2.0 F3000 ; Move Z Axis up little to prevent scratching of Heat Bed
G1 X5 Y20 Z0.3 F5000.0 ; Move over to prevent blob squish
G92 E0
G92 E0
G1 F1500 E-6.5
;LAYER_COUNT:35
;LAYER:0
M107
G0 F6000 X127.637 Y104.811 Z0.2
;TYPE:SKIRT
G1 F1500 E0
G1 F1200 X128.539 Y104.864 E0.03005
G1 X129.432 Y104.996 E0.06008
G1 X130.31 Y105.207 E0.09011
G1 X131.166 Y105.495 E0.12015
G1 X131.993 Y105.857 E0.15018
G1 X132.785 Y106.292 E0.18023
G1 X133.536 Y106.794 E0.21027
G1 X134.239 Y107.361 E0.24031
G1 X134.889 Y107.988 E0.27035
G1 X135.481 Y108.67 E0.30039
G1 X136.011 Y109.401 E0.33042
G1 X136.473 Y110.177 E0.36046
G1 X136.866 Y110.99 E0.39049
G1 X137.184 Y111.835 E0.42052
G1 X137.427 Y112.705 E0.45056
G1 X137.592 Y113.593 E0.4806
G1 X137.687 Y114.723 E0.51832
G1 X137.7 Y115.33 E0.53851
G1 X137.699 Y119.39 E0.67355
G1 X137.69 Y120.117 E0.69773
G1 X137.639 Y121.019 E0.72778
G1 X137.508 Y121.913 E0.75783
G1 X137.299 Y122.791 E0.78785
G1 X137.013 Y123.648 E0.8179
G1 X136.652 Y124.476 E0.84794
G1 X136.22 Y125.268 E0.87795
G1 X135.719 Y126.02 E0.908
G1 X135.153 Y126.724 E0.93805
G1 X134.528 Y127.375 E0.96806
G1 X133.847 Y127.969 E0.99812
G1 X133.116 Y128.5 E1.02817
G1 X132.342 Y128.964 E1.05819
G1 X131.529 Y129.358 E1.08823
G1 X130.685 Y129.678 E1.11826
G1 X129.815 Y129.923 E1.14832
G1 X128.928 Y130.089 E1.17833
G1 X127.777 Y130.187 E1.21675
G1 X127.17 Y130.2 E1.23695
G1 X108.075 Y130.199 E1.87205
G1 X107.377 Y130.19 E1.89527
G1 X106.476 Y130.139 E1.92528
G1 X105.582 Y130.007 E1.95534
G1 X104.704 Y129.798 E1.98536
G1 X103.847 Y129.511 E2.01542
G1 X103.02 Y129.15 E2.04543
G1 X102.227 Y128.717 E2.07548
G1 X101.476 Y128.216 E2.10551
G1 X100.772 Y127.65 E2.13555
G1 X100.121 Y127.024 E2.16559
G1 X99.528 Y126.343 E2.19562
G1 X98.998 Y125.612 E2.22565
G1 X98.534 Y124.837 E2.2557
G1 X98.14 Y124.024 E2.28575
G1 X97.82 Y123.18 E2.31577
G1 X97.576 Y122.31 E2.34582
G1 X97.41 Y121.422 E2.37587
G1 X97.313 Y120.267 E2.41442
G1 X97.3 Y119.658 E2.43468
G1 X97.301 Y115.536 E2.57178
G1 X97.31 Y114.871 E2.5939
G1 X97.362 Y113.969 E2.62395
G1 X97.494 Y113.076 E2.65397
G1 X97.704 Y112.198 E2.684
G1 X97.991 Y111.341 E2.71406
G1 X98.353 Y110.514 E2.74408
G1 X98.786 Y109.722 E2.7741
G1 X99.288 Y108.971 E2.80415
G1 X99.855 Y108.267 E2.83421
G1 X100.481 Y107.617 E2.86423
G1 X101.162 Y107.024 E2.89426
G1 X101.894 Y106.494 E2.92432
G1 X102.669 Y106.031 E2.95435
G1 X103.482 Y105.638 E2.98438
G1 X104.327 Y105.318 E3.01443
G1 X105.196 Y105.075 E3.04445
G1 X106.084 Y104.909 E3.07449
G1 X107.223 Y104.813 E3.11251
G1 X107.83 Y104.8 E3.1327
G1 X126.939 Y104.801 E3.76827
G1 X127.637 Y104.811 E3.79149
G0 F6000 X127.643 Y104.411
G1 F1200 X128.562 Y104.464 E3.82211
G1 X129.473 Y104.597 E3.85273
G1 X130.369 Y104.808 E3.88334
G1 X131.243 Y105.096 E3.91395
G1 X132.09 Y105.459 E3.9446
G1 X132.901 Y105.894 E3.97521
G1 X133.671 Y106.398 E4.00582
G1 X134.395 Y106.967 E4.03644
G1 X135.067 Y107.597 E4.06708
G1 X135.682 Y108.282 E4.0977
G1 X136.235 Y109.018 E4.12832
G1 X136.722 Y109.799 E4.15893
G1 X137.139 Y110.62 E4.18956
G1 X137.484 Y111.474 E4.22019
G1 X137.753 Y112.354 E4.2508
G1 X137.945 Y113.255 E4.28144
G1 X138.058 Y114.168 E4.31204
G1 X138.087 Y114.712 E4.33016
G1 X138.1 Y115.33 E4.35072
G1 X138.099 Y119.395 E4.48592
G1 X138.09 Y120.122 E4.5101
G1 X138.039 Y121.041 E4.54071
G1 X137.908 Y121.953 E4.57136
G1 X137.698 Y122.849 E4.60197
G1 X137.412 Y123.724 E4.63258
G1 X137.051 Y124.571 E4.66321
G1 X136.617 Y125.383 E4.69383
G1 X136.115 Y126.155 E4.72446
G1 X135.547 Y126.88 E4.75509
G1 X134.919 Y127.553 E4.78571
G1 X134.235 Y128.169 E4.81632
G1 X133.5 Y128.723 E4.84694
G1 X132.72 Y129.212 E4.87756
G1 X131.9 Y129.631 E4.90818
G1 X131.047 Y129.977 E4.9388
G1 X130.167 Y130.248 E4.96942
G1 X129.267 Y130.441 E5.00004
G1 X128.353 Y130.556 E5.03068
G1 X127.788 Y130.587 E5.0495
G1 X127.17 Y130.6 E5.07006
G1 X108.07 Y130.599 E5.70533
G1 X107.372 Y130.59 E5.72854
G1 X106.453 Y130.538 E5.75916
G1 X105.542 Y130.407 E5.78977
G1 X104.646 Y130.197 E5.82038
G1 X103.771 Y129.91 E5.85101
G1 X102.924 Y129.548 E5.88164
G1 X102.112 Y129.114 E5.91227
G1 X101.341 Y128.612 E5.94287
G1 X100.616 Y128.044 E5.9735
G1 X99.943 Y127.415 E6.00414
G1 X99.328 Y126.731 E6.03473
G1 X98.774 Y125.996 E6.06534
G1 X98.286 Y125.215 E6.09597
G1 X97.867 Y124.395 E6.1266
G1 X97.521 Y123.542 E6.15722
G1 X97.251 Y122.662 E6.18783
G1 X97.058 Y121.761 E6.21848
G1 X96.944 Y120.848 E6.24908
G1 X96.913 Y120.277 E6.2681
G1 X96.9 Y119.658 E6.2887
G1 X96.901 Y115.531 E6.42596
G1 X96.91 Y114.866 E6.44808
G1 X96.962 Y113.946 E6.47873
G1 X97.094 Y113.035 E6.50934
G1 X97.305 Y112.139 E6.53996
G1 X97.592 Y111.264 E6.57059
G1 X97.955 Y110.418 E6.60121
G1 X98.389 Y109.606 E6.63183
G1 X98.892 Y108.835 E6.66245
G1 X99.461 Y108.111 E6.69308
G1 X100.089 Y107.439 E6.72367
G1 X100.774 Y106.823 E6.75431
G1 X101.51 Y106.27 E6.78493
G1 X102.291 Y105.782 E6.81556
G1 X103.111 Y105.364 E6.84617
G1 X103.965 Y105.019 E6.8768
G1 X104.845 Y104.749 E6.90742
G1 X105.745 Y104.557 E6.93803
G1 X106.659 Y104.443 E6.96866
G1 X107.212 Y104.413 E6.98708
G1 X107.83 Y104.4 E7.00764
G1 X126.945 Y104.401 E7.64341
G1 X127.643 Y104.411 E7.66663
G0 F6000 X127.649 Y104.011
G1 F1200 X128.585 Y104.065 E7.69781
G1 X129.513 Y104.197 E7.72899
G1 X130.427 Y104.409 E7.76019
G1 X131.319 Y104.698 E7.79138
G1 X132.184 Y105.061 E7.82258
G1 X133.014 Y105.497 E7.85376
G1 X133.805 Y106.002 E7.88498
G1 X134.549 Y106.573 E7.91617
G1 X135.242 Y107.205 E7.94737
G1 X135.879 Y107.893 E7.97855
G1 X136.454 Y108.634 E8.00975
G1 X136.965 Y109.42 E8.04093
G1 X137.407 Y110.248 E8.07214
G1 X137.776 Y111.11 E8.10333
G1 X138.071 Y112 E8.13452
G1 X138.289 Y112.912 E8.1657
G1 X138.429 Y113.84 E8.19692
G1 X138.487 Y114.701 E8.22562
G1 X138.5 Y115.33 E8.24655
G1 X138.499 Y119.4 E8.38192
G1 X138.49 Y120.127 E8.4061
G1 X138.439 Y121.064 E8.43731
G1 X138.307 Y121.992 E8.46848
G1 X138.098 Y122.906 E8.49967
G1 X137.811 Y123.799 E8.53087
G1 X137.449 Y124.665 E8.56208
G1 X137.015 Y125.496 E8.59327
G1 X136.511 Y126.287 E8.62446
G1 X135.942 Y127.032 E8.65564
G1 X135.311 Y127.727 E8.68686
G1 X134.624 Y128.365 E8.71805
G1 X133.885 Y128.942 E8.74923
G1 X133.099 Y129.454 E8.78043
G1 X132.273 Y129.897 E8.8116
G1 X131.411 Y130.269 E8.84283
G1 X130.522 Y130.565 E8.87399
G1 X129.61 Y130.785 E8.9052
G1 X128.683 Y130.926 E8.93638
G1 X127.799 Y130.987 E8.96586
G1 X127.17 Y131 E8.98678
G1 X108.065 Y130.999 E9.62222
G1 X107.367 Y130.99 E9.64543
G1 X106.431 Y130.938 E9.67661
G1 X105.502 Y130.806 E9.70782
G1 X104.588 Y130.596 E9.73901
G1 X103.695 Y130.309 E9.77021
G1 X102.83 Y129.946 E9.80141
G1 X101.999 Y129.512 E9.83259
G1 X101.208 Y129.008 E9.86379
G1 X100.463 Y128.438 E9.89499
G1 X99.769 Y127.807 E9.92619
G1 X99.132 Y127.12 E9.95735
G1 X98.555 Y126.38 E9.98856
G1 X98.043 Y125.594 E10.01976
G1 X97.6 Y124.767 E10.05096
G1 X97.229 Y123.906 E10.08214
G1 X96.933 Y123.016 E10.11334
G1 X96.714 Y122.104 E10.14453
G1 X96.573 Y121.177 E10.17572
G1 X96.513 Y120.288 E10.20536
G1 X96.5 Y119.658 E10.22631
G1 X96.501 Y115.525 E10.36378
G1 X96.51 Y114.86 E10.3859
G1 X96.563 Y113.924 E10.41708
G1 X96.695 Y112.995 E10.44829
G1 X96.906 Y112.081 E10.47949
G1 X97.194 Y111.189 E10.51066
G1 X97.557 Y110.324 E10.54187
G1 X97.992 Y109.493 E10.57306
G1 X98.496 Y108.703 E10.60423
G1 X99.066 Y107.958 E10.63543
G1 X99.698 Y107.264 E10.66665
G1 X100.386 Y106.627 E10.69783
G1 X101.126 Y106.051 E10.72902
G1 X101.912 Y105.539 E10.76022
G1 X102.739 Y105.097 E10.79141
G1 X103.601 Y104.727 E10.82261
G1 X104.491 Y104.431 E10.85381
G1 X105.403 Y104.213 E10.88499
G1 X106.33 Y104.072 E10.91618
G1 X107.201 Y104.013 E10.94522
G1 X107.83 Y104 E10.96614
G1 X126.951 Y104.001 E11.60211
G1 X127.649 Y104.011 E11.62533
G1 F1500 E5.12533
;MESH:Hinge Test.stl
G0 F6000 X127.086 Y114.335
G0 X127.086 Y115.414
G0 X108.282 Y115.782
G0 X108.1 Y119.4
;TYPE:WALL-INNER
G1 F1500 E11.62533
G1 F1200 X108.1 Y115.6 E11.75172
G1 X126.9 Y115.6 E12.37701
G1 X126.9 Y119.4 E12.50339
G1 X108.1 Y119.4 E13.12869
G0 F6000 X107.7 Y119.8
;TYPE:WALL-OUTER
G1 F1200 X107.7 Y115.2 E13.28168
G1 X127.3 Y115.2 E13.93358
G1 X127.3 Y119.8 E14.08658
G1 X107.7 Y119.8 E14.73848
G0 F6000 X107.97 Y119.53
G0 X108.21 Y119.01
G0 X108.49 Y119.01
;TYPE:SKIN
G1 F1200 X108.49 Y115.99 E14.83892
G1 X126.51 Y115.99 E15.43827
G1 X126.51 Y119.01 E15.53871
G1 X108.49 Y119.01 E16.13806
G0 F6000 X109.232 Y118.849
G1 F1200 X108.649 Y118.266 E16.16548
G0 F6000 X108.649 Y117.7
G1 F1200 X109.798 Y118.849 E16.21953
G0 F6000 X110.363 Y118.849
G1 F1200 X108.649 Y117.135 E16.30015
G0 F6000 X108.649 Y116.569
G1 F1200 X110.929 Y118.849 E16.4074
G0 F6000 X111.495 Y118.849
G1 F1200 X108.796 Y116.15 E16.53435
G0 F6000 X109.361 Y116.15
G1 F1200 X112.06 Y118.849 E16.6613
G0 F6000 X112.626 Y118.849
G1 F1200 X109.927 Y116.15 E16.78825
G0 F6000 X110.493 Y116.15
G1 F1200 X113.192 Y118.849 E16.91521
G0 F6000 X113.757 Y118.849
G1 F1200 X111.058 Y116.15 E17.04216
G0 F6000 X111.624 Y116.15
G1 F1200 X114.323 Y118.849 E17.16911
G0 F6000 X114.889 Y118.849
G1 F1200 X112.19 Y116.15 E17.29606
G0 F6000 X112.755 Y116.15
G1 F1200 X115.454 Y118.849 E17.42302
G0 F6000 X116.02 Y118.849
G1 F1200 X113.321 Y116.15 E17.54997
G0 F6000 X113.887 Y116.15
G1 F1200 X116.586 Y118.849 E17.67692
G0 F6000 X117.152 Y118.849
G1 F1200 X114.453 Y116.15 E17.80388
G0 F6000 X115.018 Y116.15
G1 F1200 X117.717 Y118.849 E17.93083
G0 F6000 X118.283 Y118.849
G1 F1200 X115.584 Y116.15 E18.05778
G0 F6000 X116.15 Y116.15
G1 F1200 X118.849 Y118.849 E18.18473
G0 F6000 X119.414 Y118.849
G1 F1200 X116.715 Y116.15 E18.31169
G0 F6000 X117.281 Y116.15
G1 F1200 X119.98 Y118.849 E18.43864
G0 F6000 X120.546 Y118.849
G1 F1200 X117.847 Y116.15 E18.56559
G0 F6000 X118.412 Y116.15
G1 F1200 X121.111 Y118.849 E18.69254
G0 F6000 X121.677 Y118.849
G1 F1200 X118.978 Y116.15 E18.8195
G0 F6000 X119.544 Y116.15
G1 F1200 X122.243 Y118.849 E18.94645
G0 F6000 X122.808 Y118.849
G1 F1200 X120.109 Y116.15 E19.0734
G0 F6000 X120.675 Y116.15
G1 F1200 X123.374 Y118.849 E19.20035
G0 F6000 X123.94 Y118.849
G1 F1200 X121.241 Y116.15 E19.32731
G0 F6000 X121.806 Y116.15
G1 F1200 X124.505 Y118.849 E19.45426
G0 F6000 X125.071 Y118.849
G1 F1200 X122.372 Y116.15 E19.58121
G0 F6000 X122.938 Y116.15
G1 F1200 X125.637 Y118.849 E19.70817
G0 F6000 X126.203 Y118.849
G1 F1200 X123.503 Y116.15 E19.83514
G0 F6000 X124.069 Y116.15
G1 F1200 X126.349 Y118.429 E19.94236
G0 F6000 X126.349 Y117.864
G1 F1200 X124.635 Y116.15 E20.02298
G0 F6000 X125.201 Y116.15
G1 F1200 X126.349 Y117.298 E20.07698
G0 F6000 X126.349 Y116.732
G1 F1200 X125.766 Y116.15 E20.10438
G0 F6000 X125.766 Y115.8
;MESH:NONMESH
G0 F300 X125.766 Y115.8 Z0.4
G0 F6000 X125.766 Y115.71
G0 X108.282 Y115.782
G0 X108.1 Y119.4
;TIME_ELAPSED:39.617728
;LAYER:1
M140 S60
M106 S85
;TYPE:WALL-INNER
;MESH:Hinge Test.stl
G1 F1350 X108.1 Y115.6 E20.23077
G1 X126.9 Y115.6 E20.85606
G1 X126.9 Y119.4 E20.98245
G1 X108.1 Y119.4 E21.60774
G0 F7500 X107.7 Y119.8
;TYPE:WALL-OUTER
G1 F1350 X107.7 Y115.2 E21.76074
G1 X127.3 Y115.2 E22.41263
G1 X127.3 Y119.8 E22.56563
G1 X107.7 Y119.8 E23.21753
G0 F7500 X107.97 Y119.53
G0 X108.21 Y119.01
G0 X108.49 Y119.01
;TYPE:SKIN
G1 F1350 X108.49 Y115.99 E23.31798
G1 X126.51 Y115.99 E23.91732
G1 X126.51 Y119.01 E24.01777
G1 X108.49 Y119.01 E24.61712
G0 F7500 X108.21 Y119.01
G0 X108.21 Y116.493
G0 X108.649 Y116.493
G1 F1350 X108.993 Y116.149 E24.6333
G0 F7500 X109.559 Y116.149
G1 F1350 X108.649 Y117.058 E24.67608
G0 F7500 X108.649 Y117.624
G1 F1350 X110.124 Y116.149 E24.74546
G0 F7500 X110.69 Y116.149
G1 F1350 X108.649 Y118.19 E24.84146
G0 F7500 X108.649 Y118.755
G1 F1350 X111.256 Y116.149 E24.96406
G0 F7500 X111.821 Y116.149
G1 F1350 X109.121 Y118.849 E25.09106
G0 F7500 X109.687 Y118.849
G1 F1350 X112.387 Y116.149 E25.21806
G0 F7500 X112.953 Y116.149
G1 F1350 X110.252 Y118.849 E25.34508
G0 F7500 X110.818 Y118.849
G1 F1350 X113.518 Y116.149 E25.47208
G0 F7500 X114.084 Y116.149
G1 F1350 X111.384 Y118.849 E25.59908
G0 F7500 X111.949 Y118.849
G1 F1350 X114.65 Y116.149 E25.72611
G0 F7500 X115.215 Y116.149
G1 F1350 X112.515 Y118.849 E25.85311
G0 F7500 X113.081 Y118.849
G1 F1350 X115.781 Y116.149 E25.98011
G0 F7500 X116.347 Y116.149
G1 F1350 X113.646 Y118.849 E26.10713
G0 F7500 X114.212 Y118.849
G1 F1350 X116.913 Y116.149 E26.23415
G0 F7500 X117.478 Y116.149
G1 F1350 X114.778 Y118.849 E26.36115
G0 F7500 X115.343 Y118.849
G1 F1350 X118.044 Y116.149 E26.48818
G0 F7500 X118.61 Y116.149
G1 F1350 X115.909 Y118.849 E26.6152
G0 F7500 X116.475 Y118.849
G1 F1350 X119.175 Y116.149 E26.7422
G0 F7500 X119.741 Y116.149
G1 F1350 X117.041 Y118.849 E26.8692
G0 F7500 X117.606 Y118.849
G1 F1350 X120.307 Y116.149 E26.99622
G0 F7500 X120.872 Y116.149
G1 F1350 X118.172 Y118.849 E27.12322
G0 F7500 X118.738 Y118.849
G1 F1350 X121.438 Y116.149 E27.25022
G0 F7500 X122.004 Y116.149
G1 F1350 X119.303 Y118.849 E27.37724
G0 F7500 X119.869 Y118.849
G1 F1350 X122.569 Y116.149 E27.50424
G0 F7500 X123.135 Y116.149
G1 F1350 X120.435 Y118.849 E27.63124
G0 F7500 X121 Y118.849
G1 F1350 X123.701 Y116.149 E27.75827
G0 F7500 X124.266 Y116.149
G1 F1350 X121.566 Y118.849 E27.88527
G0 F7500 X122.132 Y118.849
G1 F1350 X124.832 Y116.149 E28.01227
G0 F7500 X125.398 Y116.149
G1 F1350 X122.697 Y118.849 E28.13929
G0 F7500 X123.263 Y118.849
G1 F1350 X125.964 Y116.149 E28.26631
G0 F7500 X126.349 Y116.329
G1 F1350 X123.829 Y118.849 E28.38485
G0 F7500 X124.394 Y118.849
G1 F1350 X126.349 Y116.895 E28.47678
G0 F7500 X126.349 Y117.461
G1 F1350 X124.96 Y118.849 E28.54209
G0 F7500 X125.526 Y118.849
G1 F1350 X126.349 Y118.026 E28.5808
G0 F7500 X126.349 Y118.592
G1 F1350 X126.091 Y118.849 E28.59291
G0 F7500 X126.091 Y119.2
;MESH:NONMESH
G0 F300 X126.091 Y119.2 Z0.6
G0 F7500 X126.091 Y119.29
G0 X111.283 Y119.29
G0 X111.283 Y118.227
;TIME_ELAPSED:54.706161
;LAYER:2
M106 S170
;TYPE:WALL-INNER
;MESH:Hinge Test.stl
G1 F1500 X111.527 Y118.072 E28.60253
G1 X111.696 Y117.847 E28.61189
G1 X111.773 Y117.575 E28.62129
G1 X111.75 Y117.287 E28.6309
G1 X111.619 Y117.03 E28.64049
G1 X111.409 Y116.838 E28.64996
G1 X111.142 Y116.735 E28.65948
G1 X110.858 Y116.735 E28.66892
G1 X110.591 Y116.838 E28.67844
G1 X110.381 Y117.03 E28.6879
G1 X110.25 Y117.287 E28.6975
G1 X110.227 Y117.575 E28.70711
G1 X110.304 Y117.847 E28.71651
G1 X110.473 Y118.072 E28.72587
G1 X110.717 Y118.227 E28.73548
G1 X111 Y118.277 E28.74504
G1 X111.283 Y118.227 E28.7546
G0 F9000 X111.135 Y117.847
;TYPE:WALL-OUTER
G1 F1500 X111.251 Y117.773 E28.75918
G1 X111.332 Y117.666 E28.76364
G1 X111.369 Y117.535 E28.76817
G1 X111.358 Y117.398 E28.77274
G1 X111.296 Y117.276 E28.77729
G1 X111.195 Y117.184 E28.78183
G1 X111.068 Y117.135 E28.78636
G1 X110.932 Y117.135 E28.79089
G1 X110.805 Y117.184 E28.79541
G1 X110.704 Y117.276 E28.79996
G1 X110.642 Y117.398 E28.80451
G1 X110.631 Y117.535 E28.80908
G1 X110.668 Y117.666 E28.81361
G1 X110.749 Y117.773 E28.81807
G1 X110.865 Y117.847 E28.82265
G1 X111 Y117.871 E28.82721
G1 X111.135 Y117.847 E28.83177
G0 F9000 X111.295 Y118.256
G1 F1500 E22.33177
G0 F9000 X111.966 Y117.595
G0 X111.966 Y120.665
G0 X123.034 Y120.665
G0 X123.034 Y117.595
G0 X123.717 Y118.227
;TYPE:WALL-INNER
G1 F1500 E28.83177
G1 X124 Y118.277 E28.84133
G1 X124.283 Y118.227 E28.85089
G1 X124.527 Y118.072 E28.8605
G1 X124.696 Y117.847 E28.86986
G1 X124.773 Y117.575 E28.87926
G1 X124.75 Y117.287 E28.88887
G1 X124.619 Y117.03 E28.89847
G1 X124.409 Y116.838 E28.90793
G1 X124.142 Y116.735 E28.91745
G1 X123.858 Y116.735 E28.92689
G1 X123.591 Y116.838 E28.93641
G1 X123.381 Y117.03 E28.94588
G1 X123.25 Y117.287 E28.95547
G1 X123.227 Y117.575 E28.96508
